; generated by PrusaSlicer 2.5.0+win64 on 2022-10-27 at 02:23:29 UTC


;
;

;
;
; TODO: check the size of the extruder and the y-bar clearance. Optimize & test supports.

; external perimeters extrusion width = 0.42mm
; perimeters extrusion width = 0.44mm
; infill extrusion width = 0.44mm
; solid infill extrusion width = 0.44mm
; top infill extrusion width = 0.44mm
; support material extrusion width = 0.44mm
; first layer extrusion width = 0.56mm

M107
M190 S50 ; set bed temperature and wait for it to be reached
M104 S195 ; set temperature
;TYPE:Custom
print_start
M109 S195 ; set temperature and wait for it to be reached
G21 ; set units to millimeters
G90 ; use absolute coordinates
M83 ; use relative distances for extrusion
SET_PRESSURE_ADVANCE EXTRUDER=extruder ADVANCE=0.065
SET_HEATER_TEMPERATURE HEATER=heater_bed TARGET=50
SET_HEATER_TEMPERATURE HEATER=extruder TARGET=195
M107
;LAYER_CHANGE
;Z:0.2
;HEIGHT:0.2
;BEFORE_LAYER_CHANGE
;0.2
G92 E0

G1 Z.2 F18000
;AFTER_LAYER_CHANGE
;0.2
G1 E-.75 F3000
G1 X160.766 Y157.798 F18000
G1 E.75 F1800
M204 S4000
;TYPE:Skirt/Brim
;WIDTH:0.56
G1 F580.181
G1 X162.535 Y156.589 E.09212
G1 X164.45 Y156.214 E.0839
G1 X185.55 Y156.214 E.9072
G1 X187.514 Y156.61 E.08615
G1 X189.234 Y157.798 E.08988
G1 X190.343 Y159.467 E.08615
G1 X190.718 Y161.382 E.0839
G1 X190.718 Y187.718 E1.13232
G1 X190.322 Y189.682 E.08615
G1 X189.234 Y191.302 E.0839
G1 X187.465 Y192.511 E.09212
G1 X185.55 Y192.886 E.0839
G1 X164.45 Y192.886 E.9072
G1 X162.486 Y192.49 E.08615
G1 X160.866 Y191.402 E.0839
G1 X159.657 Y189.633 E.09212
G1 X159.282 Y187.718 E.0839
G1 X159.282 Y161.382 E1.13232
G1 X159.678 Y159.418 E.08615
G1 X160.733 Y157.848 E.08132
M204 S8000
G1 X161.132 Y158.164 F18000
M204 S4000
G1 F580.181
G1 X162.824 Y157.031 E.08755
G1 X164.45 Y156.731 E.0711
G1 X185.55 Y156.731 E.9072
G1 X187.406 Y157.126 E.08159
G1 X188.868 Y158.164 E.07709
G1 X189.901 Y159.756 E.08159
G1 X190.201 Y161.382 E.0711
G1 X190.201 Y187.718 E1.13232
G1 X189.806 Y189.574 E.08159
G1 X188.868 Y190.936 E.0711
G1 X187.176 Y192.069 E.08755
G1 X185.55 Y192.369 E.0711
G1 X164.45 Y192.369 E.9072
G1 X162.594 Y191.974 E.08159
G1 X161.232 Y191.036 E.0711
G1 X160.099 Y189.344 E.08755
G1 X159.799 Y187.718 E.0711
G1 X159.799 Y161.382 E1.13232
G1 X160.194 Y159.526 E.08159
G1 X161.098 Y158.213 E.06852
M204 S8000
G1 X161.497 Y158.53 F18000
M204 S4000
G1 F580.181
G1 X163.108 Y157.478 E.0827
G1 X164.45 Y157.248 E.05855
G1 X185.55 Y157.248 E.9072
G1 X187.291 Y157.643 E.07676
G1 X188.503 Y158.53 E.06455
G1 X189.454 Y160.04 E.07676
G1 X189.684 Y161.382 E.05855
G1 X189.684 Y187.718 E1.13232
G1 X189.289 Y189.459 E.07676
G1 X188.503 Y190.57 E.05855
G1 X186.892 Y191.622 E.0827
G1 X185.55 Y191.852 E.05855
G1 X164.45 Y191.852 E.9072
G1 X162.709 Y191.457 E.07676
G1 X161.597 Y190.67 E.05855
G1 X160.546 Y189.06 E.0827
G1 X160.316 Y187.718 E.05855
G1 X160.316 Y161.382 E1.13232
G1 X160.711 Y159.641 E.07676
G1 X161.463 Y158.579 E.05597
M204 S8000
G1 X161.863 Y158.895 F18000
M204 S4000
G1 F580.181
G1 X163.386 Y157.93 E.07753
G1 X164.45 Y157.765 E.04629
G1 X185.55 Y157.765 E.9072
G1 X187.168 Y158.159 E.07161
G1 X188.137 Y158.895 E.05231
G1 X189.002 Y160.318 E.07161
G1 X189.167 Y161.382 E.04629
G1 X189.167 Y187.718 E1.13232
G1 X188.773 Y189.336 E.07161
G1 X188.137 Y190.205 E.04629
G1 X186.614 Y191.17 E.07753
G1 X185.55 Y191.335 E.04629
G1 X164.45 Y191.335 E.9072
G1 X162.832 Y190.941 E.07161
G1 X161.963 Y190.305 E.04629
G1 X160.998 Y188.782 E.07753
G1 X160.833 Y187.718 E.04629
G1 X160.833 Y161.382 E1.13232
G1 X161.227 Y159.764 E.07161
G1 X161.828 Y158.944 E.04371
M204 S8000
G1 E-.75 F3000
G1 X182.11 Y169.287 F18000
G1 E.75 F1800
M204 S4000
;TYPE:Support material
G1 F580.181
G1 X182.67 Y169.287 E.02409
G1 X182.67 Y180.502 E.48218
G1 X167.33 Y180.502 E.65955
G1 X167.33 Y169.287 E.48218
G1 X169.287 Y169.287 E.08416
G1 X169.287 Y167.89 E.06007
G1 X182.11 Y167.89 E.5513
G1 X182.11 Y169.21 E.05673
M204 S8000
G1 X181.894 Y180.269 F18000
M204 S4000
G1 F580.181
G1 X181.894 Y169.753 E.45217
G1 X181.644 Y169.753 E.01075
G1 X181.644 Y168.356 E.06007
G1 X181.32 Y168.356 E.01395
G1 X181.32 Y180.037 E.50223
G1 X180.745 Y180.037 E.0247
G1 X180.745 Y168.356 E.50223
G1 X180.171 Y168.356 E.0247
G1 X180.171 Y180.037 E.50223
G1 X179.596 Y180.037 E.0247
G1 X179.596 Y168.356 E.50223
G1 X179.022 Y168.356 E.0247
G1 X179.022 Y180.037 E.50223
G1 X178.447 Y180.037 E.0247
G1 X178.447 Y168.356 E.50223
G1 X177.873 Y168.356 E.0247
G1 X177.873 Y180.037 E.50223
G1 X177.298 Y180.037 E.0247
G1 X177.298 Y168.356 E.50223
G1 X176.724 Y168.356 E.0247
G1 X176.724 Y180.037 E.50223
G1 X176.149 Y180.037 E.0247
G1 X176.149 Y168.356 E.50223
G1 X175.575 Y168.356 E.0247
G1 X175.575 Y180.037 E.50223
G1 X175 Y180.037 E.0247
G1 X175 Y168.356 E.50223
G1 X174.425 Y168.356 E.0247
G1 X174.425 Y180.037 E.50223
G1 X173.851 Y180.037 E.0247
G1 X173.851 Y168.356 E.50223
G1 X173.276 Y168.356 E.0247
G1 X173.276 Y180.037 E.50223
G1 X172.702 Y180.037 E.0247
G1 X172.702 Y168.356 E.50223
G1 X172.127 Y168.356 E.0247
G1 X172.127 Y180.037 E.50223
G1 X171.553 Y180.037 E.0247
G1 X171.553 Y168.356 E.50223
G1 X170.978 Y168.356 E.0247
G1 X170.978 Y180.037 E.50223
G1 X170.404 Y180.037 E.0247
G1 X170.404 Y168.356 E.50223
G1 X169.829 Y168.356 E.0247
G1 X169.829 Y180.037 E.50223
G1 X169.255 Y180.037 E.0247
G1 X169.255 Y169.753 E.44216
G1 X168.68 Y169.753 E.0247
G1 X168.68 Y180.037 E.44216
G1 X168.106 Y180.037 E.0247
G1 X168.106 Y169.52 E.45217
M204 S8000
G1 E-.75 F3000
G1 X182.878 Y162.954 F18000
G1 E.75 F1800
M204 S4000
;TYPE:Perimeter
;WIDTH:0.387301
G1 F871.128
G1 X182.878 Y162.61 E.00986
G1 X183.671 Y162.61 E.02273
;WIDTH:0.422884
G1 F789.549
G1 X184.304 Y162.628 E.02001
G1 X184.304 Y163.168 E.01707
G1 X184.055 Y162.998 E.00954
G1 X183.671 Y162.954 E.01219
;WIDTH:0.387301
G1 F871.128
G1 X182.938 Y162.954 E.02101
M204 S8000
G1 E-.75 F3000
G1 X167.122 Y162.61 F18000
G1 E.75 F1800
M204 S4000
G1 F871.128
G1 X167.122 Y162.954 E.00986
G1 X166.329 Y162.954 E.02273
;WIDTH:0.422882
G1 F789.553
G1 X165.945 Y162.998 E.01219
G1 X165.696 Y163.168 E.00954
G1 X165.696 Y162.628 E.01707
G1 X166.329 Y162.61 E.02
;WIDTH:0.387301
G1 F871.128
G1 X167.062 Y162.61 E.02101
M204 S8000
G1 E-.75 F3000
G1 X165.764 Y182.608 F18000
G1 E.75 F1800
M204 S4000
;WIDTH:0.559999
G1 F580.182
G1 X166.329 Y182.796 E.02558
G1 X183.671 Y182.796 E.74566
G1 X184.236 Y182.608 E.02558
G1 X184.236 Y186.404 E.16319
G1 X165.764 Y186.404 E.7942
G1 X165.764 Y182.668 E.16061
M204 S8000
G1 X166.197 Y182.235 F18000
M204 S4000
G1 F580.182
G1 X166.329 Y182.279 E.00596
G1 X183.671 Y182.279 E.74566
G1 X184.137 Y182.124 E.02109
G1 X184.262 Y181.877 E.01192
;WIDTH:0.510707
G1 F641.318
G1 X184.387 Y181.629 E.01079
;WIDTH:0.461415
G1 F716.854
G1 X184.394 Y181.504 E.00437
;WIDTH:0.45438
G1 F729.111
G1 X184.394 Y164.161 E.59335
;WIDTH:0.489587
G1 F671.642
G1 X184.352 Y163.995 E.00634
;WIDTH:0.524793
G1 F622.571
G1 X184.31 Y163.83 E.00684
;WIDTH:0.559999
G1 F580.182
G1 X184.268 Y163.665 E.00734
G1 X183.914 Y163.424 E.01838
G1 X183.671 Y163.385 E.01058
G1 X182.447 Y163.385 E.05264
G1 X182.447 Y162.179 E.05185
G1 X184.753 Y162.179 E.09914
G1 X184.753 Y163.489 E.05632
G1 X184.771 Y163.713 E.00965
;WIDTH:0.524793
G1 F622.571
G1 X184.788 Y163.937 E.009
;WIDTH:0.489587
G1 F671.642
G1 X184.806 Y164.161 E.00834
;WIDTH:0.45438
G1 F729.111
G1 X184.806 Y181.504 E.59335
;WIDTH:0.461415
G1 F716.854
G1 X184.802 Y181.665 E.00563
;WIDTH:0.510707
G1 F641.318
G1 X184.778 Y182.049 E.01495
;WIDTH:0.559999
G1 F580.182
G1 X184.753 Y182.432 E.01652
G1 X184.753 Y186.921 E.19299
G1 X165.247 Y186.921 E.83866
G1 X165.247 Y182.432 E.19299
G1 X165.229 Y182.123 E.01333
;WIDTH:0.524793
G1 F622.571
G1 X165.212 Y181.813 E.01242
;WIDTH:0.489587
G1 F671.642
G1 X165.194 Y181.504 E.01151
;WIDTH:0.45438
G1 F729.111
G1 X165.194 Y164.161 E.59335
;WIDTH:0.489587
G1 F671.642
G1 X165.212 Y163.937 E.00834
;WIDTH:0.524793
G1 F622.571
G1 X165.229 Y163.713 E.009
;WIDTH:0.559999
G1 F580.182
G1 X165.247 Y163.489 E.00965
G1 X165.247 Y162.179 E.05632
G1 X167.553 Y162.179 E.09914
G1 X167.553 Y163.385 E.05185
G1 X166.329 Y163.385 E.05264
G1 X166.086 Y163.424 E.01058
G1 X165.732 Y163.665 E.01838
G1 X165.69 Y163.83 E.00734
;WIDTH:0.524793
G1 F622.571
G1 X165.648 Y163.995 E.00684
;WIDTH:0.489587
G1 F671.642
G1 X165.606 Y164.161 E.00634
;WIDTH:0.45438
G1 F729.111
G1 X165.606 Y181.504 E.59335
;WIDTH:0.461416
G1 F716.853
G1 X165.613 Y181.629 E.00437
;WIDTH:0.510708
G1 F641.317
G1 X165.738 Y181.877 E.01079
;WIDTH:0.559999
G1 F580.182
G1 X165.863 Y182.124 E.01192
G1 X166.14 Y182.216 E.01256
M204 S8000
G1 X166.329 Y181.762 F18000
M204 S4000
;TYPE:External perimeter
G1 F580.182
G1 X183.671 Y181.762 E.74566
G1 X183.827 Y181.71 E.00703
G1 X183.93 Y181.504 E.00994
G1 X183.93 Y164.161 E.74566
G1 X183.87 Y163.995 E.00756
G1 X183.671 Y163.902 E.00944
G1 X181.93 Y163.902 E.07487
G1 X181.93 Y161.662 E.09631
G1 X185.27 Y161.662 E.1436
G1 X185.27 Y187.438 E1.10824
G1 X164.73 Y187.438 E.88312
G1 X164.73 Y161.662 E1.10824
G1 X168.07 Y161.662 E.1436
G1 X168.07 Y163.902 E.09631
G1 X166.329 Y163.902 E.07487
G1 X166.13 Y163.995 E.00944
G1 X166.07 Y164.161 E.00756
G1 X166.07 Y181.504 E.74566
G1 X166.173 Y181.71 E.00994
G1 X166.272 Y181.743 E.00445
M204 S8000
G1 X166.432 Y182.148 F18000
G1 E-.75 F3000
G1 X183.131 Y182.977 F18000
G1 E.75 F1800
M204 S4000
;TYPE:Solid infill
;WIDTH:0.56961
G1 F569.595
G1 X183.822 Y183.668 E.04279
G1 X183.822 Y184.413 E.03262
G1 X182.619 Y183.21 E.07451
G1 X181.874 Y183.21 E.03262
G1 X183.822 Y185.158 E.12065
G1 X183.822 Y185.903 E.03262
G1 X181.129 Y183.21 E.16678
G1 X180.385 Y183.21 E.03262
G1 X183.165 Y185.99 E.17219
G1 X182.42 Y185.99 E.03262
G1 X179.64 Y183.21 E.17219
G1 X178.895 Y183.21 E.03262
G1 X181.675 Y185.99 E.17219
G1 X180.93 Y185.99 E.03262
G1 X178.15 Y183.21 E.17219
G1 X177.405 Y183.21 E.03262
G1 X180.185 Y185.99 E.17219
G1 X179.44 Y185.99 E.03262
G1 X176.66 Y183.21 E.17219
G1 X175.915 Y183.21 E.03262
G1 X178.696 Y185.99 E.17219
G1 X177.951 Y185.99 E.03262
G1 X175.171 Y183.21 E.17219
G1 X174.426 Y183.21 E.03262
G1 X177.206 Y185.99 E.17219
G1 X176.461 Y185.99 E.03262
G1 X173.681 Y183.21 E.17219
G1 X172.936 Y183.21 E.03262
G1 X175.716 Y185.99 E.17219
G1 X174.971 Y185.99 E.03262
G1 X172.191 Y183.21 E.17219
G1 X171.446 Y183.21 E.03262
G1 X174.226 Y185.99 E.17219
G1 X173.482 Y185.99 E.03262
G1 X170.701 Y183.21 E.17219
G1 X169.957 Y183.21 E.03262
G1 X172.737 Y185.99 E.17219
G1 X171.992 Y185.99 E.03262
G1 X169.212 Y183.21 E.17219
G1 X168.467 Y183.21 E.03262
G1 X171.247 Y185.99 E.17219
G1 X170.502 Y185.99 E.03262
G1 X167.722 Y183.21 E.17219
G1 X166.977 Y183.21 E.03262
G1 X169.757 Y185.99 E.17219
G1 X169.013 Y185.99 E.03262
G1 X166.178 Y183.168 E.17517
G1 X166.178 Y183.9 E.03207
G1 X168.268 Y185.99 E.12943
G1 X167.523 Y185.99 E.03262
G1 X166.178 Y184.645 E.0833
G1 X166.178 Y185.39 E.03262
G1 X167.011 Y186.223 E.05158
M204 S8000
M106 S255
;LAYER_CHANGE
;Z:0.4
;HEIGHT:0.2
;BEFORE_LAYER_CHANGE
;0.4
G92 E0

G1 Z.4 F18000
;AFTER_LAYER_CHANGE
;0.4
M104 S190 ; set temperature
G1 X166.266 Y182.344
;TYPE:Perimeter
;WIDTH:0.439999
G1 F755.517
G1 X166.429 Y182.376 E.00548
G1 X183.571 Y182.376 E.56601
G1 X183.946 Y182.301 E.0126
G1 X184.35 Y181.987 E.0169
G1 X184.513 Y181.569 E.01483
;WIDTH:0.405852
G1 F826.601
G1 X184.523 Y181.404 E.00499
;WIDTH:0.397302
G1 F846.544
G1 X184.523 Y164.261 E.50515
;WIDTH:0.439999
G1 F755.517
G1 X184.374 Y163.711 E.01879
G1 X184.006 Y163.39 E.01614
G1 X183.571 Y163.288 E.01473
G1 X182.544 Y163.288 E.03392
G1 X182.544 Y162.276 E.0334
G1 X184.856 Y162.276 E.07633
G1 X184.856 Y163.562 E.04246
G1 X184.877 Y164.261 E.02307
;WIDTH:0.397302
G1 F846.544
G1 X184.877 Y181.404 E.50515
;WIDTH:0.405852
G1 F826.601
G1 X184.873 Y181.6 E.00593
;WIDTH:0.439999
G1 F755.517
G1 X184.856 Y182.156 E.01836
G1 X184.856 Y187.024 E.16072
G1 X165.144 Y187.024 E.65083
G1 X165.144 Y182.156 E.16072
G1 X165.123 Y181.404 E.02485
;WIDTH:0.397302
G1 F846.544
G1 X165.123 Y164.261 E.50515
;WIDTH:0.439999
G1 F755.517
G1 X165.144 Y163.562 E.02307
G1 X165.144 Y162.276 E.04246
G1 X167.456 Y162.276 E.07633
G1 X167.456 Y163.288 E.0334
G1 X166.429 Y163.288 E.03392
G1 X165.994 Y163.39 E.01473
G1 X165.626 Y163.711 E.01614
G1 X165.477 Y164.261 E.01879
;WIDTH:0.397302
G1 F846.544
G1 X165.477 Y181.404 E.50515
;WIDTH:0.405853
G1 F826.599
G1 X165.487 Y181.569 E.00499
;WIDTH:0.439999
G1 F755.517
G1 X165.65 Y181.987 E.01483
G1 X166.054 Y182.301 E.0169
G1 X166.207 Y182.332 E.00514
G1 X166.348 Y181.963 F18000
G1 F755.517
G1 X166.429 Y181.979 E.0027
G1 X183.571 Y181.979 E.56601
G1 X183.793 Y181.935 E.00745
G1 X184.032 Y181.749 E.01
G1 X184.147 Y181.404 E.01202
G1 X184.147 Y164.261 E.56601
G1 X184.047 Y163.936 E.01123
G1 X183.828 Y163.746 E.00955
G1 X183.571 Y163.685 E.00871
G1 X182.147 Y163.685 E.04703
G1 X182.147 Y161.879 E.05962
G1 X185.253 Y161.879 E.10255
G1 X185.253 Y187.421 E.84331
G1 X164.747 Y187.421 E.67705
G1 X164.747 Y161.879 E.84331
G1 X167.853 Y161.879 E.10255
G1 X167.853 Y163.685 E.05962
G1 X166.429 Y163.685 E.04703
G1 X166.172 Y163.746 E.00871
G1 X165.953 Y163.936 E.00955
G1 X165.853 Y164.261 E.01123
G1 X165.853 Y181.404 E.56601
G1 X165.968 Y181.749 E.01202
G1 X166.207 Y181.935 E.01
G1 X166.289 Y181.951 E.00277
G1 X166.429 Y181.592 F18000
;TYPE:External perimeter
;WIDTH:0.419999
G1 F795.589
G1 X183.571 Y181.592 E.5375
G1 X183.722 Y181.517 E.00529
G1 X183.76 Y181.404 E.00374
G1 X183.76 Y164.261 E.5375
G1 X183.727 Y164.154 E.00349
G1 X183.571 Y164.072 E.00552
G1 X181.76 Y164.072 E.0568
G1 X181.76 Y161.492 E.08089
G1 X185.463 Y161.492 E.11611
G1 X185.64 Y161.669 E.00785
G1 X185.64 Y187.631 E.81401
G1 X185.463 Y187.808 E.00785
G1 X164.537 Y187.808 E.65612
G1 X164.36 Y187.631 E.00785
G1 X164.36 Y161.669 E.81401
G1 X164.537 Y161.492 E.00785
G1 X168.24 Y161.492 E.11611
G1 X168.24 Y164.072 E.08089
G1 X166.429 Y164.072 E.0568
G1 X166.273 Y164.154 E.00552
G1 X166.24 Y164.261 E.00349
G1 X166.24 Y181.404 E.5375
G1 X166.278 Y181.517 E.00374
G1 X166.375 Y181.565 E.00341
G1 X166.532 Y181.978 F18000
G1 X183.906 Y186.885
M204 S12000
;TYPE:Solid infill
;WIDTH:0.444047
G1 F747.893
G1 X184.538 Y186.252 E.02984
G1 X184.538 Y185.685 E.01892
G1 X183.517 Y186.706 E.04817
G1 X182.95 Y186.706 E.01892
G1 X184.538 Y185.118 E.07493
G1 X184.538 Y184.55 E.01892
G1 X182.382 Y186.706 E.10169
G1 X181.815 Y186.706 E.01892
G1 X184.538 Y183.983 E.12844
G1 X184.538 Y183.416 E.01892
G1 X181.248 Y186.706 E.1552
G1 X180.681 Y186.706 E.01892
G1 X184.538 Y182.848 E.18196
G1 X184.538 Y182.281 E.01892
G1 X180.113 Y186.706 E.20872
G1 X179.546 Y186.706 E.01892
G1 X183.558 Y182.694 E.18925
G1 X182.991 Y182.694 E.01892
G1 X178.979 Y186.706 E.18925
G1 X178.411 Y186.706 E.01892
G1 X182.424 Y182.694 E.18925
G1 X181.856 Y182.694 E.01892
G1 X177.844 Y186.706 E.18925
G1 X177.277 Y186.706 E.01892
G1 X181.289 Y182.694 E.18925
G1 X180.722 Y182.694 E.01892
G1 X176.71 Y186.706 E.18925
G1 X176.142 Y186.706 E.01892
G1 X180.155 Y182.694 E.18925
G1 X179.587 Y182.694 E.01892
G1 X175.575 Y186.706 E.18925
G1 X175.008 Y186.706 E.01892
G1 X179.02 Y182.694 E.18925
G1 X178.453 Y182.694 E.01892
G1 X174.441 Y186.706 E.18925
G1 X173.873 Y186.706 E.01892
G1 X177.885 Y182.694 E.18925
G1 X177.318 Y182.694 E.01892
G1 X173.306 Y186.706 E.18925
G1 X172.739 Y186.706 E.01892
G1 X176.751 Y182.694 E.18925
G1 X176.184 Y182.694 E.01892
G1 X172.171 Y186.706 E.18925
G1 X171.604 Y186.706 E.01892
G1 X175.616 Y182.694 E.18925
G1 X175.049 Y182.694 E.01892
G1 X171.037 Y186.706 E.18925
G1 X170.47 Y186.706 E.01892
G1 X174.482 Y182.694 E.18925
G1 X173.914 Y182.694 E.01892
G1 X169.902 Y186.706 E.18925
G1 X169.335 Y186.706 E.01892
G1 X173.347 Y182.694 E.18925
G1 X172.78 Y182.694 E.01892
G1 X168.768 Y186.706 E.18925
G1 X168.2 Y186.706 E.01892
G1 X172.213 Y182.694 E.18925
G1 X171.645 Y182.694 E.01892
G1 X167.633 Y186.706 E.18925
G1 X167.066 Y186.706 E.01892
G1 X171.078 Y182.694 E.18925
G1 X170.511 Y182.694 E.01892
G1 X166.499 Y186.706 E.18925
G1 X165.931 Y186.706 E.01892
G1 X169.944 Y182.694 E.18925
G1 X169.376 Y182.694 E.01892
G1 X165.462 Y186.608 E.18464
G1 X165.462 Y186.041 E.01892
G1 X168.809 Y182.694 E.15788
G1 X168.242 Y182.694 E.01892
