; generated by PrusaSlicer 2.5.0+win64 on 2022-10-27 at 18:46:55 UTC


;
;

;
;
; TODO: check the size of the extruder and the y-bar clearance. Optimize & test supports.

; external perimeters extrusion width = 0.42mm
; perimeters extrusion width = 0.44mm
; infill extrusion width = 0.44mm
; solid infill extrusion width = 0.44mm
; top infill extrusion width = 0.44mm
; first layer extrusion width = 0.56mm

M107
M190 S50 ; set bed temperature and wait for it to be reached
M104 S195 ; set temperature
;TYPE:Custom
print_start
M109 S195 ; set temperature and wait for it to be reached
G21 ; set units to millimeters
G90 ; use absolute coordinates
M83 ; use relative distances for extrusion
SET_PRESSURE_ADVANCE EXTRUDER=extruder ADVANCE=0.065
SET_HEATER_TEMPERATURE HEATER=heater_bed TARGET=50
SET_HEATER_TEMPERATURE HEATER=extruder TARGET=195
M107
;LAYER_CHANGE
;Z:0.2
;HEIGHT:0.2
;BEFORE_LAYER_CHANGE
;0.2
G92 E0

G1 Z.2 F18000
;AFTER_LAYER_CHANGE
;0.2
G1 E-.75 F3000
G1 X111.177 Y166.861 F18000
G1 E.75 F1800
M204 S4000
;TYPE:Skirt/Brim
;WIDTH:0.56
G1 F1740.544
G1 X112.823 Y165.917 E.08159
G1 X114.214 Y165.699 E.06056
G1 X235.786 Y165.699 E5.22701
G1 X237.642 Y166.094 E.08159
G1 X239.175 Y167.212 E.08159
G1 X240.119 Y168.859 E.08159
G1 X240.337 Y170.25 E.06056
G1 X240.337 Y179.75 E.40846
G1 X239.941 Y181.606 E.08159
G1 X238.823 Y183.139 E.08159
G1 X237.177 Y184.083 E.08159
G1 X235.786 Y184.301 E.06056
G1 X114.214 Y184.301 E5.22701
G1 X112.358 Y183.906 E.08159
G1 X110.825 Y182.788 E.08159
G1 X109.881 Y181.141 E.08159
G1 X109.663 Y179.75 E.06056
G1 X109.663 Y170.25 E.40846
G1 X110.059 Y168.394 E.08159
G1 X111.141 Y166.909 E.07901
M204 S8000
G1 X111.572 Y167.25 F18000
M204 S4000
G1 F1740.544
G1 X111.683 Y167.109 E.00772
G1 X113.286 Y166.324 E.07676
G1 X114.214 Y166.216 E.04016
G1 X235.786 Y166.216 E5.22701
G1 X237.527 Y166.611 E.07676
G1 X238.927 Y167.719 E.07676
G1 X239.712 Y169.322 E.07676
G1 X239.82 Y170.25 E.04016
G1 X239.82 Y179.75 E.40846
G1 X239.425 Y181.491 E.07676
G1 X238.317 Y182.891 E.07676
G1 X236.714 Y183.676 E.07676
G1 X235.786 Y183.784 E.04016
G1 X114.214 Y183.784 E5.22701
G1 X112.473 Y183.389 E.07676
G1 X111.073 Y182.281 E.07676
G1 X110.288 Y180.678 E.07676
G1 X110.18 Y179.75 E.04016
G1 X110.18 Y170.25 E.40846
G1 X110.575 Y168.509 E.07676
G1 X111.534 Y167.297 E.06646
M204 S8000
G1 X111.944 Y167.654 F18000
M204 S4000
G1 F1740.544
G1 X112.186 Y167.377 E.01582
G1 X114.214 Y166.733 E.09149
G1 X235.786 Y166.733 E5.22701
G1 X237.404 Y167.127 E.07161
G1 X238.659 Y168.222 E.07161
G1 X239.303 Y170.25 E.09149
G1 X239.303 Y179.75 E.40846
G1 X238.909 Y181.368 E.07161
G1 X237.814 Y182.623 E.07161
G1 X235.786 Y183.267 E.09149
G1 X114.214 Y183.267 E5.22701
G1 X112.596 Y182.873 E.07161
G1 X111.341 Y181.778 E.07161
G1 X110.697 Y179.75 E.09149
G1 X110.697 Y170.25 E.40846
G1 X111.091 Y168.632 E.07161
G1 X111.905 Y167.699 E.0532
M204 S8000
G1 E-.75 F3000
G1 X227.161 Y171.65 F18000
G1 E.75 F1800
M204 S4000
;TYPE:Perimeter
;WIDTH:0.559999
G1 F1740.547
G1 X227.688 Y171.664 E.02266
G1 X234.372 Y171.664 E.28736
G1 X234.372 Y178.336 E.28685
G1 X227.199 Y178.336 E.30839
G1 X227.194 Y172.258 E.26133
G1 X227.165 Y171.71 E.0236
M204 S8000
G1 X226.591 Y171.225 F18000
M204 S4000
G1 F1740.547
G1 X226.578 Y171.111 E.00494
G1 X227.689 Y171.147 E.04779
G1 X234.889 Y171.147 E.30956
G1 X234.889 Y178.853 E.33132
G1 X226.682 Y178.853 E.35284
G1 X226.677 Y172.258 E.28355
G1 X226.643 Y171.655 E.02597
G1 X226.599 Y171.284 E.01606
M204 S8000
G1 E-.75 F3000
G1 X213.374 Y172.991 F18000
G1 E.75 F1800
M204 S4000
G1 F1740.547
G1 X212.907 Y172.836 E.02113
G1 X185.593 Y172.836 E1.17439
G1 X185.124 Y172.992 E.02127
G1 X185.121 Y172.187 E.03462
G1 X185.09 Y171.649 E.02316
G1 X185.687 Y171.664 E.02568
G1 X213.373 Y171.664 E1.19036
G1 X213.373 Y172.931 E.05448
M204 S8000
G1 E-.75 F3000
G1 X213.336 Y177.604 F18000
G1 E.75 F1800
M204 S4000
;WIDTH:0.642361
G1 F1501.399
G1 X213.365 Y178.3 E.03468
G1 X212.907 Y178.3 E.02282
;WIDTH:0.639288
G1 F1509.135
G1 X207.3 Y178.298 E.27803
;WIDTH:0.637753
G1 F1513.03
G1 X207.003 Y178.298 E.0147
G1 X207.003 Y177.703 E.02941
G1 X207.3 Y177.703 E.01471
;WIDTH:0.639288
G1 F1509.135
G1 X212.907 Y177.704 E.27803
;WIDTH:0.642361
G1 F1501.399
G1 X213.164 Y177.68 E.01286
G1 X213.281 Y177.629 E.00636
M204 S8000
G1 E-.75 F3000
G1 X191.497 Y178.297 F18000
G1 E.75 F1800
M204 S4000
;WIDTH:0.637302
G1 F1514.178
G1 X185.593 Y178.297 E.29181
;WIDTH:0.639787
G1 F1507.874
G1 X185.167 Y178.296 E.02112
G1 X185.167 Y177.567 E.03617
G1 X185.489 Y177.7 E.01729
G1 X185.593 Y177.703 E.00516
;WIDTH:0.637302
G1 F1514.178
G1 X191.497 Y177.703 E.29181
G1 X191.497 Y178.237 E.02641
M204 S8000
G1 E-.75 F3000
G1 X171.282 Y178.081 F18000
G1 E.75 F1800
M204 S4000
;WIDTH:0.642254
G1 F1501.667
G1 X171.293 Y178.301 E.01098
G1 X170.835 Y178.3 E.02283
;WIDTH:0.639139
G1 F1509.512
G1 X169.015 Y178.299 E.09026
;WIDTH:0.638177
G1 F1511.952
G1 X168.718 Y178.298 E.01472
G1 X168.718 Y177.703 E.02945
G1 X169.015 Y177.703 E.01473
;WIDTH:0.639139
G1 F1509.512
G1 X170.836 Y177.704 E.09026
;WIDTH:0.642254
G1 F1501.667
G1 X171.093 Y177.68 E.01286
G1 X171.264 Y177.604 E.00936
G1 X171.279 Y178.021 E.02077
M204 S8000
G1 E-.75 F3000
G1 X171.302 Y172.991 F18000
G1 E.75 F1800
M204 S4000
;WIDTH:0.559999
G1 F1740.547
G1 X170.836 Y172.836 E.02113
G1 X150.593 Y172.836 E.87035
G1 X150.124 Y172.992 E.02127
G1 X150.121 Y172.187 E.03462
G1 X150.09 Y171.649 E.02317
G1 X150.711 Y171.664 E.0267
G1 X171.301 Y171.664 E.8853
G1 X171.302 Y172.931 E.05448
M204 S8000
G1 E-.75 F3000
G1 X152.711 Y177.703 F18000
G1 E.75 F1800
M204 S4000
;WIDTH:0.637305
G1 F1514.17
G1 X152.711 Y178.297 E.02938
G1 X150.593 Y178.297 E.10471
;WIDTH:0.639787
G1 F1507.874
G1 X150.167 Y178.296 E.02112
G1 X150.167 Y177.567 E.03617
G1 X150.489 Y177.7 E.01729
G1 X150.593 Y177.703 E.00516
;WIDTH:0.637305
G1 F1514.17
G1 X152.651 Y177.703 E.10174
M204 S8000
G1 E-.75 F3000
G1 X136.281 Y178.063 F18000
G1 E.75 F1800
M204 S4000
;WIDTH:0.642254
G1 F1501.667
G1 X136.293 Y178.301 E.01187
G1 X135.835 Y178.3 E.02283
;WIDTH:0.639139
G1 F1509.512
G1 X134.015 Y178.299 E.09026
;WIDTH:0.638177
G1 F1511.952
G1 X133.718 Y178.298 E.01472
G1 X133.718 Y177.703 E.02945
G1 X134.015 Y177.703 E.01473
;WIDTH:0.639139
G1 F1509.512
G1 X135.836 Y177.704 E.09026
;WIDTH:0.642254
G1 F1501.667
G1 X136.093 Y177.68 E.01286
G1 X136.264 Y177.604 E.00936
G1 X136.278 Y178.003 E.01988
M204 S8000
G1 E-.75 F3000
G1 X136.302 Y172.991 F18000
G1 E.75 F1800
M204 S4000
;WIDTH:0.559999
G1 F1740.547
G1 X135.836 Y172.836 E.02113
G1 X116.093 Y172.836 E.84885
G1 X115.628 Y172.991 E.02105
G1 X115.628 Y171.664 E.05703
G1 X136.301 Y171.664 E.88883
G1 X136.302 Y172.931 E.05448
M204 S8000
G1 E-.75 F3000
G1 X118.211 Y177.703 F18000
G1 E.75 F1800
M204 S4000
;WIDTH:0.637302
G1 F1514.178
G1 X118.211 Y178.297 E.02938
G1 X116.093 Y178.297 E.10471
;WIDTH:0.639742
G1 F1507.987
G1 X115.668 Y178.296 E.02107
G1 X115.668 Y177.568 E.03614
G1 X115.99 Y177.7 E.01725
G1 X116.093 Y177.703 E.00511
;WIDTH:0.637302
G1 F1514.178
G1 X118.151 Y177.703 E.10175
M204 S8000
G1 X115.952 Y177.095 F18000
M204 S4000
;WIDTH:0.559999
G1 F1740.547
G1 X116.093 Y177.147 E.00645
G1 X118.767 Y177.147 E.11499
G1 X118.767 Y178.853 E.07334
G1 X115.111 Y178.853 E.15718
G1 X115.111 Y177.185 E.07173
G1 X115.092 Y176.981 E.00878
;WIDTH:0.521095
G1 F1882.158
G1 X115.072 Y176.778 E.00812
;WIDTH:0.48219
G1 F2048.854
G1 X115.053 Y176.575 E.00746
;WIDTH:0.443286
G1 F2247.946
G1 X115.034 Y176.371 E.0068
;WIDTH:0.404381
G1 F2489.895
G1 X115.034 Y174.129 E.06741
;WIDTH:0.443286
G1 F2247.946
G1 X115.053 Y173.909 E.00734
;WIDTH:0.48219
G1 F2048.854
G1 X115.072 Y173.689 E.00805
;WIDTH:0.521095
G1 F1882.158
G1 X115.092 Y173.47 E.00877
;WIDTH:0.559999
G1 F1740.547
G1 X115.111 Y173.25 E.00948
G1 X115.111 Y171.147 E.09042
G1 X136.818 Y171.147 E.93327
G1 X136.819 Y173.249 E.09036
G1 X136.839 Y173.469 E.00949
;WIDTH:0.52144
G1 F1880.8
G1 X136.858 Y173.689 E.00878
;WIDTH:0.482881
G1 F2045.638
G1 X136.878 Y173.908 E.00808
;WIDTH:0.444322
G1 F2242.145
G1 X136.897 Y174.128 E.00737
;WIDTH:0.40658
G1 F2474.839
G1 X136.898 Y176.371 E.06782
;WIDTH:0.413252
G1 F2430.252
G1 X136.895 Y176.524 E.0047
;WIDTH:0.462168
G1 F2146.702
G1 X136.871 Y176.702 E.00625
;WIDTH:0.511084
G1 F1922.406
G1 X136.846 Y176.879 E.00698
;WIDTH:0.559999
G1 F1740.547
G1 X136.822 Y177.057 E.0077
G1 X136.824 Y177.784 E.03129
G1 X136.857 Y178.345 E.02414
G1 X136.946 Y178.902 E.02424
G1 X136.229 Y178.857 E.03086
G1 X133.161 Y178.854 E.13191
G1 X133.161 Y177.147 E.07338
G1 X135.836 Y177.147 E.11499
G1 X135.985 Y177.133 E.00645
G1 X136.408 Y176.896 E.02082
G1 X136.439 Y176.765 E.0058
;WIDTH:0.521645
G1 F1879.997
G1 X136.471 Y176.634 E.00537
;WIDTH:0.48329
G1 F2043.738
G1 X136.503 Y176.502 E.00494
;WIDTH:0.444935
G1 F2238.724
G1 X136.535 Y176.371 E.00451
;WIDTH:0.40658
G1 F2474.839
G1 X136.534 Y174.128 E.06782
;WIDTH:0.405762
G1 F2480.418
G1 X136.534 Y174.128 E.00002
;WIDTH:0.44432
G1 F2242.154
G1 X136.476 Y173.973 E.00553
;WIDTH:0.48288
G1 F2045.643
G1 X136.418 Y173.818 E.00606
;WIDTH:0.52144
G1 F1880.802
G1 X136.359 Y173.663 E.00659
;WIDTH:0.559999
G1 F1740.547
G1 X136.301 Y173.508 E.00712
G1 X135.836 Y173.353 E.0211
G1 X116.093 Y173.353 E.84885
G1 X115.627 Y173.508 E.02109
G1 X115.569 Y173.663 E.00712
;WIDTH:0.521095
G1 F1882.158
G1 X115.511 Y173.818 E.00659
;WIDTH:0.48219
G1 F2048.854
G1 X115.453 Y173.973 E.00605
;WIDTH:0.443286
G1 F2247.946
G1 X115.395 Y174.129 E.00551
;WIDTH:0.404381
G1 F2489.895
G1 X115.395 Y176.371 E.06741
;WIDTH:0.411038
G1 F2444.868
G1 X115.402 Y176.493 E.00371
;WIDTH:0.460692
G1 F2154.287
G1 X115.465 Y176.649 E.00586
;WIDTH:0.510346
G1 F1925.441
G1 X115.528 Y176.806 E.00656
;WIDTH:0.559999
G1 F1740.547
G1 X115.591 Y176.963 E.00726
G1 X115.896 Y177.075 E.01397
M204 S8000
G1 E-.75 F3000
G1 X149.611 Y178.853 F18000
G1 E.75 F1800
M204 S4000
G1 F1740.547
G1 X149.61 Y177.185 E.07172
G1 X149.59 Y176.982 E.00878
;WIDTH:0.521394
G1 F1880.981
G1 X149.571 Y176.778 E.00813
;WIDTH:0.482789
G1 F2046.066
G1 X149.551 Y176.575 E.00747
;WIDTH:0.444184
G1 F2242.917
G1 X149.532 Y176.372 E.00681
;WIDTH:0.406397
G1 F2476.085
G1 X149.531 Y174.129 E.06779
;WIDTH:0.444798
G1 F2239.488
G1 X149.55 Y173.908 E.00739
;WIDTH:0.483198
G1 F2044.163
G1 X149.569 Y173.688 E.00809
;WIDTH:0.521599
G1 F1880.176
G1 X149.588 Y173.468 E.0088
;WIDTH:0.559999
G1 F1740.547
G1 X149.607 Y173.248 E.0095
G1 X149.605 Y172.216 E.04437
G1 X149.571 Y171.655 E.02414
G1 X149.508 Y171.109 E.02364
G1 X150.712 Y171.147 E.05179
G1 X171.818 Y171.147 E.90745
G1 X171.819 Y173.249 E.09036
G1 X171.839 Y173.469 E.00949
;WIDTH:0.52144
G1 F1880.8
G1 X171.858 Y173.689 E.00878
;WIDTH:0.482881
G1 F2045.638
G1 X171.878 Y173.908 E.00808
;WIDTH:0.444322
G1 F2242.145
G1 X171.897 Y174.128 E.00737
;WIDTH:0.40658
G1 F2474.839
G1 X171.898 Y176.371 E.06782
;WIDTH:0.413252
G1 F2430.252
G1 X171.895 Y176.524 E.0047
;WIDTH:0.462168
G1 F2146.702
G1 X171.871 Y176.702 E.00625
;WIDTH:0.511084
G1 F1922.406
G1 X171.846 Y176.879 E.00698
;WIDTH:0.559999
G1 F1740.547
G1 X171.822 Y177.057 E.0077
G1 X171.824 Y177.784 E.03129
G1 X171.857 Y178.345 E.02414
G1 X171.946 Y178.902 E.02424
G1 X171.229 Y178.857 E.03086
G1 X168.161 Y178.854 E.13191
G1 X168.161 Y177.147 E.07338
G1 X170.836 Y177.147 E.11499
G1 X170.985 Y177.133 E.00645
G1 X171.407 Y176.896 E.02082
G1 X171.439 Y176.765 E.0058
;WIDTH:0.521645
G1 F1879.997
G1 X171.471 Y176.634 E.00537
;WIDTH:0.48329
G1 F2043.738
G1 X171.503 Y176.502 E.00494
;WIDTH:0.444935
G1 F2238.724
G1 X171.535 Y176.371 E.00451
;WIDTH:0.40658
G1 F2474.839
G1 X171.534 Y174.128 E.06782
;WIDTH:0.405762
G1 F2480.418
G1 X171.534 Y174.128 E.00002
;WIDTH:0.44432
G1 F2242.154
G1 X171.476 Y173.973 E.00553
;WIDTH:0.48288
G1 F2045.643
G1 X171.418 Y173.818 E.00606
;WIDTH:0.52144
G1 F1880.802
G1 X171.359 Y173.663 E.00659
;WIDTH:0.559999
G1 F1740.547
G1 X171.301 Y173.508 E.00712
G1 X170.836 Y173.353 E.0211
G1 X150.593 Y173.353 E.87035
G1 X150.128 Y173.508 E.02109
G1 X150.069 Y173.663 E.00713
;WIDTH:0.521599
G1 F1880.176
G1 X150.011 Y173.818 E.0066
;WIDTH:0.483198
G1 F2044.163
G1 X149.952 Y173.973 E.00607
;WIDTH:0.444798
G1 F2239.488
G1 X149.894 Y174.128 E.00554
;WIDTH:0.406397
G1 F2476.085
G1 X149.894 Y176.371 E.06779
;WIDTH:0.412245
G1 F2436.878
G1 X149.902 Y176.493 E.00375
;WIDTH:0.461497
G1 F2150.145
G1 X149.965 Y176.65 E.00587
;WIDTH:0.510748
G1 F1923.785
G1 X150.027 Y176.806 E.00656
;WIDTH:0.559999
G1 F1740.547
G1 X150.09 Y176.962 E.00725
G1 X150.593 Y177.147 E.02302
G1 X153.267 Y177.147 E.11499
G1 X153.267 Y178.853 E.07334
G1 X149.671 Y178.853 E.15463
M204 S8000
G1 E-.75 F3000
G1 X184.611 Y178.853 F18000
G1 E.75 F1800
M204 S4000
G1 F1740.547
G1 X184.61 Y177.185 E.07172
G1 X184.59 Y176.982 E.00878
;WIDTH:0.521394
G1 F1880.98
G1 X184.571 Y176.778 E.00813
;WIDTH:0.482789
G1 F2046.064
G1 X184.551 Y176.575 E.00747
;WIDTH:0.444184
G1 F2242.912
G1 X184.532 Y176.372 E.00681
;WIDTH:0.406398
G1 F2476.078
G1 X184.531 Y174.129 E.06779
;WIDTH:0.444799
G1 F2239.484
G1 X184.55 Y173.908 E.00739
;WIDTH:0.483199
G1 F2044.161
G1 X184.569 Y173.688 E.00809
;WIDTH:0.521599
G1 F1880.175
G1 X184.588 Y173.468 E.0088
;WIDTH:0.559999
G1 F1740.547
G1 X184.607 Y173.248 E.0095
G1 X184.605 Y172.216 E.04437
G1 X184.571 Y171.655 E.02414
G1 X184.499 Y171.118 E.0233
G1 X185.687 Y171.147 E.05107
G1 X213.889 Y171.147 E1.21257
G1 X213.891 Y173.249 E.09036
G1 X213.91 Y173.469 E.00949
;WIDTH:0.521439
G1 F1880.806
G1 X213.93 Y173.689 E.00878
;WIDTH:0.482878
G1 F2045.652
G1 X213.949 Y173.908 E.00808
;WIDTH:0.444317
G1 F2242.171
G1 X213.969 Y174.128 E.00737
;WIDTH:0.406575
G1 F2474.873
G1 X213.97 Y176.371 E.06782
;WIDTH:0.413247
G1 F2430.285
G1 X213.967 Y176.524 E.0047
;WIDTH:0.462165
G1 F2146.719
G1 X213.942 Y176.702 E.00625
;WIDTH:0.511082
G1 F1922.413
G1 X213.918 Y176.879 E.00698
;WIDTH:0.559999
G1 F1740.547
G1 X213.894 Y177.057 E.0077
G1 X213.895 Y177.784 E.03129
G1 X213.929 Y178.345 E.02414
G1 X214.016 Y178.901 E.02419
G1 X213.329 Y178.857 E.02963
G1 X206.447 Y178.853 E.29587
G1 X206.447 Y177.147 E.07336
G1 X212.907 Y177.147 E.27775
G1 X213.057 Y177.133 E.00645
G1 X213.479 Y176.896 E.02082
G1 X213.511 Y176.765 E.0058
;WIDTH:0.521643
G1 F1880.002
G1 X213.543 Y176.634 E.00537
;WIDTH:0.483287
G1 F2043.75
G1 X213.574 Y176.502 E.00494
;WIDTH:0.444931
G1 F2238.745
G1 X213.606 Y176.371 E.00451
;WIDTH:0.406575
G1 F2474.873
G1 X213.606 Y174.128 E.06782
;WIDTH:0.405756
G1 F2480.46
G1 X213.606 Y174.128 E.00002
;WIDTH:0.444316
G1 F2242.175
G1 X213.547 Y173.973 E.00553
;WIDTH:0.482877
G1 F2045.654
G1 X213.489 Y173.818 E.00606
;WIDTH:0.521438
G1 F1880.807
G1 X213.431 Y173.663 E.00659
;WIDTH:0.559999
G1 F1740.547
G1 X213.373 Y173.508 E.00712
G1 X212.907 Y173.353 E.0211
G1 X185.593 Y173.353 E1.17439
G1 X185.128 Y173.508 E.02109
G1 X185.069 Y173.663 E.00713
;WIDTH:0.521599
G1 F1880.175
G1 X185.011 Y173.818 E.0066
;WIDTH:0.483199
G1 F2044.161
G1 X184.952 Y173.973 E.00607
;WIDTH:0.444799
G1 F2239.484
G1 X184.894 Y174.128 E.00554
;WIDTH:0.406398
G1 F2476.078
G1 X184.894 Y176.371 E.06779
;WIDTH:0.412246
G1 F2436.872
G1 X184.902 Y176.493 E.00375
;WIDTH:0.461497
G1 F2150.142
G1 X184.965 Y176.65 E.00587
;WIDTH:0.510748
G1 F1923.784
G1 X185.027 Y176.806 E.00656
;WIDTH:0.559999
G1 F1740.547
G1 X185.09 Y176.962 E.00725
G1 X185.593 Y177.147 E.02302
G1 X192.053 Y177.147 E.27775
G1 X192.053 Y178.853 E.07334
G1 X184.671 Y178.853 E.3174
M204 S8000
G1 X185.334 Y176.371 F18000
M204 S4000
;TYPE:External perimeter
G1 F1740.547
G1 X185.425 Y176.568 E.00933
G1 X185.593 Y176.63 E.00767
G1 X192.57 Y176.63 E.29999
G1 X192.57 Y179.37 E.11781
G1 X184.094 Y179.37 E.36443
G1 X184.088 Y172.244 E.30637
G1 X184.059 Y171.724 E.02242
G1 X183.987 Y171.187 E.0233
G1 X183.805 Y170.973 E.01206
G1 X183.742 Y171.006 E.00306
;WIDTH:0.513819
G1 F1911.239
G1 X183.678 Y171.038 E.00279
;WIDTH:0.467639
G1 F2119.051
G1 X183.615 Y171.071 E.00251
;WIDTH:0.421459
G1 F2377.562
G1 X173.045 Y179.229 E.42026
;WIDTH:0.460825
G1 F2153.603
G1 X172.907 Y179.311 E.00558
;WIDTH:0.50019
G1 F1968.204
G1 X172.768 Y179.392 E.00611
;WIDTH:0.539555
G1 F1812.196
G1 X172.63 Y179.474 E.00664
G1 X172.543 Y179.469 E.0036
;WIDTH:0.559999
