; generated by PrusaSlicer 2.5.0+win64 on 2022-10-27 at 19:57:51 UTC


;
;

;
;
; TODO: check the size of the extruder and the y-bar clearance. Optimize & test supports.

; external perimeters extrusion width = 0.42mm
; perimeters extrusion width = 0.44mm
; infill extrusion width = 0.44mm
; solid infill extrusion width = 0.44mm
; top infill extrusion width = 0.44mm
; first layer extrusion width = 0.56mm

M107
M190 S80 ; set bed temperature and wait for it to be reached
M104 S255 ; set temperature
;TYPE:Custom
print_start
M109 S255 ; set temperature and wait for it to be reached
G21 ; set units to millimeters
G90 ; use absolute coordinates
M83 ; use relative distances for extrusion
SET_PRESSURE_ADVANCE EXTRUDER=extruder ADVANCE=0.065
SET_HEATER_TEMPERATURE HEATER=heater_bed TARGET=80
SET_HEATER_TEMPERATURE HEATER=extruder TARGET=255
M107
;LAYER_CHANGE
;Z:0.2
;HEIGHT:0.2
;BEFORE_LAYER_CHANGE
;0.2
G92 E0

G1 Z.2 F18000
;AFTER_LAYER_CHANGE
;0.2
G1 E-.75 F3000
G1 X128.712 Y166.861 F18000
G1 E.75 F1800
M204 S4000
;TYPE:Skirt/Brim
;WIDTH:0.56
G1 F3240
G1 X130.359 Y165.917 E.08077
G1 X131.75 Y165.699 E.05995
G1 X218.25 Y165.699 E3.68191
G1 X220.106 Y166.094 E.08077
G1 X221.639 Y167.212 E.08077
G1 X222.583 Y168.859 E.08077
G1 X222.801 Y170.25 E.05995
G1 X222.801 Y179.75 E.40437
G1 X222.406 Y181.606 E.08077
G1 X221.288 Y183.139 E.08077
G1 X219.641 Y184.083 E.08077
G1 X218.25 Y184.301 E.05995
G1 X131.75 Y184.301 E3.68191
G1 X129.894 Y183.906 E.08077
G1 X128.361 Y182.788 E.08077
G1 X127.417 Y181.141 E.08077
G1 X127.199 Y179.75 E.05995
G1 X127.199 Y170.25 E.40437
G1 X127.594 Y168.394 E.08077
G1 X128.677 Y166.909 E.07822
M204 S8000
G1 X129.107 Y167.25 F18000
M204 S4000
G1 F3240
G1 X129.219 Y167.109 E.00764
G1 X130.822 Y166.324 E.07599
G1 X131.75 Y166.216 E.03976
G1 X218.25 Y166.216 E3.68191
G1 X219.991 Y166.611 E.07599
G1 X221.391 Y167.719 E.07599
G1 X222.176 Y169.322 E.07599
G1 X222.284 Y170.25 E.03976
G1 X222.284 Y179.75 E.40437
G1 X221.889 Y181.491 E.07599
G1 X220.781 Y182.891 E.07599
G1 X219.178 Y183.676 E.07599
G1 X218.25 Y183.784 E.03976
G1 X131.75 Y183.784 E3.68191
G1 X130.009 Y183.389 E.07599
G1 X128.609 Y182.281 E.07599
G1 X127.824 Y180.678 E.07599
G1 X127.716 Y179.75 E.03976
G1 X127.716 Y170.25 E.40437
G1 X128.111 Y168.509 E.07599
G1 X129.07 Y167.297 E.0658
M204 S8000
G1 X129.48 Y167.654 F18000
M204 S4000
G1 F3240
G1 X129.722 Y167.377 E.01567
G1 X131.75 Y166.733 E.09058
G1 X218.25 Y166.733 E3.68191
G1 X219.868 Y167.127 E.07089
G1 X221.123 Y168.222 E.07089
G1 X221.767 Y170.25 E.09058
G1 X221.767 Y179.75 E.40437
G1 X221.373 Y181.368 E.07089
G1 X220.278 Y182.623 E.07089
G1 X218.25 Y183.267 E.09058
G1 X131.75 Y183.267 E3.68191
G1 X130.132 Y182.873 E.07089
G1 X128.877 Y181.778 E.07089
G1 X128.233 Y179.75 E.09058
G1 X128.233 Y170.25 E.40437
G1 X128.627 Y168.632 E.07089
G1 X129.44 Y167.699 E.05267
M204 S8000
G1 E-.75 F3000
G1 X209.626 Y171.656 F18000
G1 E.75 F1800
M204 S4000
;TYPE:Perimeter
;WIDTH:0.559999
G1 F2592
G1 X216.836 Y171.664 E.30689
G1 X216.836 Y178.336 E.28401
G1 X209.663 Y178.336 E.30531
G1 X209.659 Y172.258 E.25872
G1 X209.63 Y171.716 E.02309
M204 S8000
G1 X209.035 Y171.118 F18000
M204 S4000
G1 F2592
G1 X209.749 Y171.143 E.03041
G1 X217.353 Y171.147 E.32366
G1 X217.353 Y178.853 E.32802
G1 X209.146 Y178.853 E.34931
G1 X209.142 Y172.258 E.28071
G1 X209.107 Y171.655 E.02571
G1 X209.043 Y171.177 E.02051
M204 S8000
G1 E-.75 F3000
G1 X195.837 Y171.664 F18000
G1 E.75 F1800
M204 S4000
G1 F4320
G1 X195.841 Y177.742 E.25872
G1 X195.875 Y178.351 E.02594
G1 X195.282 Y178.336 E.02523
G1 X167.663 Y178.336 E1.17561
G1 X167.659 Y172.258 E.25872
G1 X167.625 Y171.649 E.02594
G1 X168.218 Y171.664 E.02523
G1 X195.777 Y171.664 E1.17305
M204 S8000
G1 E-.75 F3000
G1 X196.473 Y178.892 F18000
G1 E.75 F1800
M204 S4000
G1 F4320
G1 X195.282 Y178.853 E.05073
G1 X167.147 Y178.853 E1.1976
G1 X167.142 Y172.258 E.28071
G1 X167.107 Y171.655 E.02571
G1 X167.035 Y171.118 E.02306
G1 X168.218 Y171.147 E.05036
G1 X196.354 Y171.147 E1.1976
G1 X196.358 Y177.742 E.28071
G1 X196.393 Y178.345 E.02571
G1 X196.465 Y178.832 E.02097
M204 S8000
G1 E-.75 F3000
G1 X153.875 Y178.351 F18000
G1 E.75 F1800
M204 S4000
G1 F4320
G1 X153.292 Y178.336 E.02481
G1 X133.164 Y178.336 E.85675
G1 X133.164 Y171.664 E.28398
G1 X153.837 Y171.664 E.87994
G1 X153.841 Y177.742 E.25872
G1 X153.871 Y178.291 E.02339
M204 S8000
G1 X154.466 Y178.846 F18000
M204 S4000
G1 F4320
G1 X154.473 Y178.892 E.00196
G1 X153.292 Y178.853 E.0503
G1 X132.647 Y178.853 E.87876
G1 X132.647 Y171.147 E.328
G1 X154.354 Y171.147 E.92394
G1 X154.358 Y177.742 E.28071
G1 X154.393 Y178.345 E.02571
G1 X154.458 Y178.787 E.01901
M204 S8000
G1 X155.225 Y178.987 F18000
M204 S4000
;TYPE:External perimeter
;WIDTH:0.499565
G1 F3456
G1 X155.287 Y178.958 E.00259
;WIDTH:0.460512
G1 X155.349 Y178.929 E.00236
;WIDTH:0.421459
G1 X165.919 Y170.771 E.41606
;WIDTH:0.467639
G1 X166.058 Y170.693 E.00557
;WIDTH:0.513819
G1 X166.197 Y170.615 E.00618
;WIDTH:0.559999
G1 X166.336 Y170.537 E.00678
G1 X167.082 Y170.594 E.03185
G1 X168.218 Y170.63 E.04836
G1 X196.87 Y170.63 E1.21959
G1 X196.876 Y177.756 E.30331
G1 X196.906 Y178.276 E.0222
G1 X196.977 Y178.813 E.02306
G1 X197.162 Y179.017 E.0117
;WIDTH:0.538632
G1 X197.225 Y178.987 E.00281
;WIDTH:0.499574
G1 X197.287 Y178.958 E.00259
;WIDTH:0.460516
G1 X197.349 Y178.929 E.00236
;WIDTH:0.421458
G1 X207.919 Y170.771 E.41606
;WIDTH:0.467639
G1 X208.058 Y170.693 E.00557
;WIDTH:0.513819
G1 X208.197 Y170.615 E.00618
;WIDTH:0.559999
G1 X208.336 Y170.537 E.00678
G1 X209.749 Y170.626 E.06027
G1 X217.87 Y170.63 E.34566
G1 X217.87 Y174.999 E.18597
G1 X217.87 Y179.37 E.18606
G1 X208.63 Y179.37 E.39331
G1 X208.624 Y172.244 E.30331
G1 X208.594 Y171.724 E.0222
G1 X208.523 Y171.187 E.02306
G1 X208.341 Y170.973 E.01193
G1 X208.277 Y171.006 E.00303
;WIDTH:0.513819
G1 X208.214 Y171.038 E.00276
;WIDTH:0.467639
G1 X208.151 Y171.071 E.00249
;WIDTH:0.421458
G1 X197.581 Y179.229 E.41606
;WIDTH:0.460516
G1 X197.443 Y179.31 E.00551
;WIDTH:0.499574
G1 X197.305 Y179.392 E.00602
;WIDTH:0.538632
G1 X197.167 Y179.474 E.00654
G1 X197.079 Y179.467 E.00361
;WIDTH:0.559999
G1 X196.418 Y179.406 E.02826
G1 X195.282 Y179.37 E.04836
G1 X166.63 Y179.37 E1.21959
G1 X166.624 Y172.244 E.30331
G1 X166.594 Y171.724 E.0222
G1 X166.523 Y171.187 E.02306
G1 X166.341 Y170.973 E.01194
G1 X166.277 Y171.006 E.00303
;WIDTH:0.513819
G1 X166.214 Y171.038 E.00276
;WIDTH:0.467639
G1 X166.151 Y171.071 E.00249
;WIDTH:0.421459
G1 X155.581 Y179.229 E.41606
;WIDTH:0.460512
G1 X155.443 Y179.31 E.00551
;WIDTH:0.499565
G1 X155.305 Y179.392 E.00602
;WIDTH:0.538618
G1 X155.167 Y179.474 E.00654
G1 X155.079 Y179.467 E.00361
;WIDTH:0.559999
G1 X154.418 Y179.406 E.02826
G1 X153.292 Y179.37 E.04794
G1 X132.13 Y179.37 E.90077
G1 X132.13 Y170.63 E.37202
G1 X154.87 Y170.63 E.96795
G1 X154.876 Y177.756 E.30331
G1 X154.906 Y178.276 E.0222
G1 X154.977 Y178.813 E.02306
G1 X155.163 Y179.017 E.0117
;WIDTH:0.538618
G1 X155.17 Y179.013 E.00036
M204 S8000
G1 E-.75 F3000
G1 X153.657 Y172.908 F18000
G1 E.75 F1800
M204 S4000
;TYPE:Solid infill
;WIDTH:0.567829
G1 F5715.276
G1 X152.827 Y172.078 E.05072
G1 X152.084 Y172.078 E.03208
G1 X153.424 Y173.418 E.08188
G1 X153.425 Y174.161 E.0321
G1 X151.342 Y172.078 E.12728
G1 X150.6 Y172.078 E.03208
G1 X153.426 Y174.904 E.17268
G1 X153.426 Y175.646 E.0321
G1 X149.857 Y172.078 E.21807
G1 X149.115 Y172.078 E.03208
G1 X153.427 Y176.389 E.26347
G1 X153.427 Y177.132 E.0321
G1 X148.373 Y172.078 E.30886
G1 X147.63 Y172.078 E.03208
G1 X153.434 Y177.882 E.35466
G1 X153.437 Y177.93 E.00209
G1 X152.74 Y177.93 E.0301
G1 X146.888 Y172.078 E.35759
G1 X146.146 Y172.078 E.03208
G1 X151.997 Y177.929 E.35757
G1 X151.255 Y177.929 E.03209
G1 X145.403 Y172.078 E.35756
G1 X144.661 Y172.078 E.03208
G1 X150.512 Y177.929 E.35754
G1 X149.769 Y177.928 E.03209
G1 X143.919 Y172.078 E.35752
G1 X143.176 Y172.078 E.03208
G1 X149.027 Y177.928 E.3575
G1 X148.284 Y177.928 E.03209
G1 X142.434 Y172.078 E.35749
G1 X141.692 Y172.078 E.03208
G1 X147.542 Y177.928 E.35747
G1 X146.799 Y177.927 E.03209
G1 X140.949 Y172.078 E.35745
G1 X140.207 Y172.078 E.03208
G1 X146.056 Y177.927 E.35743
G1 X145.314 Y177.927 E.03209
G1 X139.465 Y172.078 E.35742
G1 X138.722 Y172.078 E.03208
G1 X144.571 Y177.926 E.3574
G1 X143.829 Y177.926 E.03209
G1 X137.98 Y172.078 E.35738
G1 X137.238 Y172.078 E.03208
G1 X143.086 Y177.926 E.35737
G1 X142.343 Y177.926 E.03209
G1 X136.495 Y172.078 E.35735
G1 X135.753 Y172.078 E.03208
G1 X141.601 Y177.925 E.35733
G1 X140.858 Y177.925 E.03209
G1 X135.011 Y172.078 E.35731
G1 X134.268 Y172.078 E.03208
G1 X140.115 Y177.925 E.3573
G1 X139.373 Y177.924 E.03209
G1 X133.578 Y172.129 E.35412
G1 X133.578 Y172.872 E.03208
G1 X138.63 Y177.924 E.30874
G1 X137.888 Y177.924 E.03209
G1 X133.578 Y173.614 E.26336
G1 X133.578 Y174.356 E.03208
G1 X137.145 Y177.924 E.21798
G1 X136.402 Y177.923 E.03209
G1 X133.578 Y175.099 E.1726
G1 X133.578 Y175.841 E.03208
G1 X135.66 Y177.923 E.12722
G1 X134.917 Y177.923 E.03209
G1 X133.578 Y176.583 E.08184
G1 X133.578 Y177.326 E.03208
G1 X134.407 Y178.155 E.05069
M204 S8000
G1 E-.75 F3000
G1 X195.657 Y172.91 F18000
G1 E.75 F1800
M204 S4000
;WIDTH:0.569024
G1 F5702.295
G1 X194.824 Y172.078 E.05099
G1 X194.08 Y172.078 E.03222
G1 X195.424 Y173.422 E.08233
G1 X195.425 Y174.167 E.03225
G1 X193.336 Y172.078 E.12794
G1 X192.592 Y172.078 E.03222
G1 X195.426 Y174.911 E.17354
G1 X195.426 Y175.656 E.03225
G1 X191.848 Y172.078 E.21915
G1 X191.104 Y172.078 E.03222
G1 X195.427 Y176.4 E.26475
G1 X195.427 Y177.145 E.03225
G1 X190.36 Y172.078 E.31036
G1 X189.616 Y172.078 E.03222
G1 X195.435 Y177.897 E.35641
G1 X195.437 Y177.93 E.00145
G1 X194.724 Y177.93 E.03086
G1 X188.872 Y172.077 E.35844
G1 X188.128 Y172.077 E.03222
G1 X193.98 Y177.93 E.35843
G1 X193.236 Y177.929 E.03223
G1 X187.384 Y172.077 E.35842
G1 X186.64 Y172.077 E.03222
G1 X192.491 Y177.929 E.35841
G1 X191.747 Y177.929 E.03223
G1 X185.896 Y172.077 E.3584
G1 X185.151 Y172.077 E.03222
G1 X191.003 Y177.929 E.35838
G1 X190.259 Y177.929 E.03223
G1 X184.407 Y172.077 E.35837
G1 X183.663 Y172.077 E.03222
G1 X189.514 Y177.928 E.35836
G1 X188.77 Y177.928 E.03223
G1 X182.919 Y172.077 E.35835
G1 X182.175 Y172.077 E.03222
G1 X188.026 Y177.928 E.35834
G1 X187.282 Y177.928 E.03223
G1 X181.431 Y172.077 E.35833
G1 X180.687 Y172.077 E.03222
G1 X186.538 Y177.927 E.35832
G1 X185.793 Y177.927 E.03223
G1 X179.943 Y172.077 E.35831
G1 X179.199 Y172.077 E.03222
G1 X185.049 Y177.927 E.3583
G1 X184.305 Y177.927 E.03223
G1 X178.455 Y172.077 E.35829
G1 X177.711 Y172.077 E.03222
G1 X183.561 Y177.927 E.35828
G1 X182.816 Y177.926 E.03223
G1 X176.967 Y172.077 E.35827
G1 X176.223 Y172.077 E.03222
G1 X182.072 Y177.926 E.35825
G1 X181.328 Y177.926 E.03223
G1 X175.479 Y172.077 E.35824
G1 X174.735 Y172.077 E.03222
G1 X180.584 Y177.926 E.35823
G1 X179.839 Y177.926 E.03223
G1 X173.991 Y172.077 E.35822
G1 X173.247 Y172.077 E.03222
G1 X179.095 Y177.925 E.35821
G1 X178.351 Y177.925 E.03223
G1 X172.503 Y172.077 E.3582
G1 X171.758 Y172.077 E.03222
G1 X177.607 Y177.925 E.35819
G1 X176.862 Y177.925 E.03223
G1 X171.014 Y172.077 E.35818
G1 X170.27 Y172.077 E.03222
G1 X176.118 Y177.925 E.35817
G1 X175.374 Y177.924 E.03223
G1 X169.526 Y172.077 E.35816
G1 X168.782 Y172.077 E.03222
G1 X174.63 Y177.924 E.35815
G1 X173.886 Y177.924 E.03223
G1 X168.065 Y172.103 E.35649
G1 X168.073 Y172.855 E.03256
G1 X173.141 Y177.924 E.31043
G1 X172.397 Y177.923 E.03223
G1 X168.073 Y173.6 E.26481
G1 X168.074 Y174.344 E.03225
G1 X171.653 Y177.923 E.2192
G1 X170.909 Y177.923 E.03223
G1 X168.074 Y175.089 E.17358
G1 X168.075 Y175.834 E.03225
G1 X170.164 Y177.923 E.12797
G1 X169.42 Y177.923 E.03223
G1 X168.076 Y176.578 E.08235
G1 X168.076 Y177.323 E.03225
G1 X168.909 Y178.155 E.05099
M204 S8000
G1 E-.75 F3000
G1 X216.655 Y172.895 F18000
G1 E.75 F1800
M204 S4000
;WIDTH:0.562436
G1 F5774.606
G1 X215.837 Y172.077 E.04948
G1 X215.102 Y172.076 E.03144
G1 X216.422 Y173.397 E.07987
G1 X216.422 Y174.132 E.03142
G1 X214.367 Y172.076 E.12432
G1 X213.632 Y172.076 E.03144
G1 X216.422 Y174.866 E.16878
G1 X216.422 Y175.601 E.03142
G1 X212.897 Y172.075 E.21323
G1 X212.161 Y172.075 E.03144
G1 X216.422 Y176.336 E.25769
G1 X216.422 Y177.07 E.03142
G1 X211.426 Y172.075 E.30215
G1 X210.691 Y172.074 E.03144
G1 X216.422 Y177.805 E.3466
G1 X216.422 Y177.922 E.00501
G1 X215.805 Y177.922 E.02641
G1 X210.069 Y172.187 E.34688
G1 X210.073 Y172.925 E.03158
G1 X215.07 Y177.922 E.30222
G1 X214.335 Y177.922 E.03142
G1 X210.073 Y173.66 E.25775
G1 X210.074 Y174.396 E.03144
G1 X213.6 Y177.922 E.21328
G1 X212.866 Y177.922 E.03142
G1 X210.075 Y175.131 E.16882
G1 X210.075 Y175.866 E.03144
G1 X212.131 Y177.922 E.12435
G1 X211.396 Y177.922 E.03142
G1 X210.076 Y176.601 E.07988
G1 X210.076 Y177.337 E.03144
G1 X210.894 Y178.155 E.04949
M204 S8000
M106 S255
;LAYER_CHANGE
;Z:0.4
;HEIGHT:0.2
;BEFORE_LAYER_CHANGE
;0.4
G92 E0

G1 Z.4 F18000
;AFTER_LAYER_CHANGE
;0.4
M104 S250 ; set temperature
G1 X209.244 Y171.244
;TYPE:Perimeter
;WIDTH:0.439999
G1 F4320
G1 X217.256 Y171.244 E.26188
G1 X217.256 Y178.756 E.24554
G1 X209.244 Y178.756 E.26188
G1 X209.244 Y171.304 E.24357
G1 X208.769 Y171.109 F18000
G1 F4320
G1 X208.579 Y170.847 E.01056
G1 X217.653 Y170.847 E.29659
G1 X217.653 Y179.153 E.27149
G1 X208.847 Y179.153 E.28784
G1 X208.847 Y171.217 E.25941
G1 X208.804 Y171.157 E.00241
G1 E-.75 F3000
G1 Z1 F18000
G1 X196.256 Y171.244
G1 Z.4
G1 E.75 F1800
G1 F7200
G1 X196.256 Y178.756 E.24554
G1 X167.244 Y178.756 E.94831
G1 X167.244 Y171.244 E.24554
G1 X196.196 Y171.244 E.94635
G1 X196.921 Y179.153 F18000
G1 F7200
G1 X166.847 Y179.153 E.98302
G1 X166.847 Y171.217 E.25941
G1 X166.579 Y170.847 E.01492
G1 X196.653 Y170.847 E.98302
G1 X196.653 Y178.783 E.25941
G1 X196.886 Y179.104 E.01296
G1 E-.75 F3000
G1 Z1 F18000
G1 X154.256 Y178.756
G1 Z.4
G1 E.75 F1800
G1 F7200
G1 X132.744 Y178.756 E.70315
G1 X132.744 Y171.244 E.24554
G1 X154.256 Y171.244 E.70315
G1 X154.256 Y178.696 E.24357
G1 X154.921 Y179.153 F18000
G1 F7200
G1 X132.347 Y179.153 E.73787
G1 X132.347 Y170.847 E.27149
G1 X154.653 Y170.847 E.72911
G1 X154.653 Y178.783 E.25941
G1 X154.886 Y179.104 E.01296
G1 X155.344 Y178.933 F18000
;TYPE:External perimeter
;WIDTH:0.421459
G1 F5760
G1 X166.322 Y170.46 E.43211
;WIDTH:0.419999
G1 X197.04 Y170.46 E.95352
G1 X197.04 Y178.783 E.25836
;WIDTH:0.420531
G1 X197.17 Y178.963 E.00688
;WIDTH:0.421458
G1 X197.344 Y178.933 E.00552
G1 X208.322 Y170.46 E.43211
;WIDTH:0.419999
G1 X218.04 Y170.46 E.30167
G1 X218.04 Y175 E.14092
G1 X218.04 Y179.54 E.14092
G1 X208.46 Y179.54 E.29737
G1 X208.46 Y171.217 E.25836
G1 X208.33 Y171.038 E.00687
;WIDTH:0.42146
G1 X208.156 Y171.067 E.00551
G1 X197.178 Y179.54 E.43211
;WIDTH:0.420531
G1 X196.283 Y179.54 E.02783
;WIDTH:0.419999
G1 X166.46 Y179.54 E.92573
G1 X166.46 Y171.217 E.25836
G1 X166.33 Y171.038 E.00687
;WIDTH:0.42146
G1 X166.156 Y171.067 E.00551
G1 X155.178 Y179.54 E.43211
;WIDTH:0.420531
G1 X154.283 Y179.54 E.02783
;WIDTH:0.419999
G1 X131.96 Y179.54 E.69293
G1 X131.96 Y170.46 E.28185
G1 X155.04 Y170.46 E.71642
G1 X155.04 Y178.783 E.25836
;WIDTH:0.420531
G1 X155.17 Y178.963 E.00688
;WIDTH:0.421459
G1 X155.285 Y178.943 E.00365
G1 X153.3 Y178.617 F18000
M204 S12000
;TYPE:Solid infill
;WIDTH:0.446634
G1 F7431.003
G1 X153.938 Y177.979 E.02999
G1 X153.938 Y177.408 E.01897
G1 X152.908 Y178.438 E.04842
G1 X152.337 Y178.438 E.01897
G1 X153.938 Y176.837 E.07526
G1 X153.938 Y176.266 E.01897
G1 X151.766 Y178.438 E.10209
G1 X151.195 Y178.438 E.01897
G1 X153.938 Y175.695 E.12893
G1 X153.938 Y175.124 E.01897
G1 X150.624 Y178.438 E.15576
G1 X150.053 Y178.438 E.01897
G1 X153.938 Y174.553 E.18259
G1 X153.938 Y173.982 E.01897
G1 X149.482 Y178.438 E.20943
G1 X148.911 Y178.438 E.01897
G1 X153.938 Y173.411 E.23626
G1 X153.938 Y172.84 E.01897
G1 X148.34 Y178.438 E.26309
G1 X147.769 Y178.438 E.01897
G1 X153.938 Y172.269 E.28993
G1 X153.938 Y171.698 E.01897
G1 X147.198 Y178.438 E.31676
G1 X146.628 Y178.438 E.01897
G1 X153.504 Y171.562 E.32318
G1 X152.933 Y171.562 E.01897
G1 X146.057 Y178.438 E.32318
G1 X145.486 Y178.438 E.01897
G1 X152.362 Y171.562 E.32318
G1 X151.791 Y171.562 E.01897
G1 X144.915 Y178.438 E.32318
