; generated by PrusaSlicer 2.5.0+win64 on 2022-10-30 at 18:41:05 UTC


;
;

;
;
; TODO: check the size of the extruder and the y-bar clearance. Optimize & test supports.

; external perimeters extrusion width = 0.42mm
; perimeters extrusion width = 0.44mm
; infill extrusion width = 0.44mm
; solid infill extrusion width = 0.44mm
; top infill extrusion width = 0.44mm
; first layer extrusion width = 0.56mm

M107
M190 S60 ; set bed temperature and wait for it to be reached
M104 S255 ; set temperature
;TYPE:Custom
print_start
M109 S255 ; set temperature and wait for it to be reached
G21 ; set units to millimeters
G90 ; use absolute coordinates
M83 ; use relative distances for extrusion
SET_PRESSURE_ADVANCE EXTRUDER=extruder ADVANCE=0.04
SET_HEATER_TEMPERATURE HEATER=heater_bed TARGET=60
SET_HEATER_TEMPERATURE HEATER=extruder TARGET=260
M107
;LAYER_CHANGE
;Z:0.2
;HEIGHT:0.2
;BEFORE_LAYER_CHANGE
;0.2
G92 E0

G1 Z.2 F18000
;AFTER_LAYER_CHANGE
;0.2
G1 E-.75 F3000
G1 X155.444 Y166.41 F18000
G1 E.75 F1800
M204 S4000
;TYPE:Skirt/Brim
;WIDTH:0.56
G1 F1740.544
G1 X157.153 Y165.182 E.08957
G1 X159.5 Y164.665 E.10231
G1 X190.5 Y164.665 E1.31953
G1 X192.567 Y165.061 E.08957
G1 X194.34 Y166.194 E.08957
G1 X195.568 Y167.903 E.08957
G1 X196.085 Y170.25 E.10231
G1 X196.085 Y179.75 E.40437
G1 X195.689 Y181.817 E.08957
G1 X194.556 Y183.59 E.08957
G1 X192.847 Y184.818 E.08957
G1 X190.5 Y185.335 E.10231
G1 X159.5 Y185.335 E1.31953
G1 X157.433 Y184.939 E.08957
G1 X155.66 Y183.806 E.08957
G1 X154.432 Y182.097 E.08957
G1 X153.915 Y179.75 E.10231
G1 X153.915 Y170.25 E.40437
G1 X154.311 Y168.183 E.08957
G1 X155.412 Y166.461 E.08702
M204 S8000
G1 X155.861 Y166.766 F18000
M204 S4000
G1 F1740.544
G1 X155.954 Y166.629 E.00706
G1 X157.634 Y165.538 E.08529
G1 X159.5 Y165.182 E.08084
G1 X190.5 Y165.182 E1.31953
G1 X192.464 Y165.578 E.08529
G1 X194.121 Y166.704 E.08529
G1 X195.212 Y168.384 E.08529
G1 X195.568 Y170.25 E.08084
G1 X195.568 Y179.75 E.40437
G1 X195.172 Y181.714 E.08529
G1 X194.046 Y183.371 E.08529
G1 X192.366 Y184.462 E.08529
G1 X190.5 Y184.818 E.08084
G1 X159.5 Y184.818 E1.31953
G1 X157.536 Y184.422 E.08529
G1 X155.879 Y183.296 E.08529
G1 X154.788 Y181.616 E.08529
G1 X154.432 Y179.75 E.08084
G1 X154.432 Y170.25 E.40437
G1 X154.828 Y168.286 E.08529
G1 X155.827 Y166.815 E.07568
M204 S8000
G1 X156.263 Y167.134 F18000
M204 S4000
G1 F1740.544
G1 X156.462 Y166.861 E.01437
G1 X158.109 Y165.917 E.08077
G1 X159.5 Y165.699 E.05995
G1 X190.5 Y165.699 E1.31953
G1 X192.356 Y166.094 E.08077
G1 X193.889 Y167.212 E.08077
G1 X194.833 Y168.859 E.08077
G1 X195.051 Y170.25 E.05995
G1 X195.051 Y179.75 E.40437
G1 X194.656 Y181.606 E.08077
G1 X193.538 Y183.139 E.08077
G1 X191.891 Y184.083 E.08077
G1 X190.5 Y184.301 E.05995
G1 X159.5 Y184.301 E1.31953
G1 X157.644 Y183.906 E.08077
G1 X156.111 Y182.788 E.08077
G1 X155.167 Y181.141 E.08077
G1 X154.949 Y179.75 E.05995
G1 X154.949 Y170.25 E.40437
G1 X155.344 Y168.394 E.08077
G1 X156.228 Y167.182 E.06385
M204 S8000
G1 X156.648 Y167.514 F18000
M204 S4000
G1 F1740.544
G1 X156.969 Y167.109 E.022
G1 X158.572 Y166.324 E.07599
G1 X159.5 Y166.216 E.03976
G1 X190.5 Y166.216 E1.31953
G1 X192.241 Y166.611 E.07599
G1 X193.641 Y167.719 E.07599
G1 X194.426 Y169.322 E.07599
G1 X194.534 Y170.25 E.03976
G1 X194.534 Y179.75 E.40437
G1 X194.139 Y181.491 E.07599
G1 X193.031 Y182.891 E.07599
G1 X191.428 Y183.676 E.07599
G1 X190.5 Y183.784 E.03976
G1 X159.5 Y183.784 E1.31953
G1 X157.759 Y183.389 E.07599
G1 X156.359 Y182.281 E.07599
G1 X155.574 Y180.678 E.07599
G1 X155.466 Y179.75 E.03976
G1 X155.466 Y170.25 E.40437
G1 X155.861 Y168.509 E.07599
G1 X156.611 Y167.561 E.05144
M204 S8000
G1 X157.008 Y167.908 F18000
M204 S4000
G1 F1740.544
G1 X157.472 Y167.377 E.03001
G1 X159.5 Y166.733 E.09058
G1 X190.5 Y166.733 E1.31953
G1 X192.118 Y167.127 E.07089
G1 X193.373 Y168.222 E.07089
G1 X194.017 Y170.25 E.09058
G1 X194.017 Y179.75 E.40437
G1 X193.623 Y181.368 E.07089
G1 X192.528 Y182.623 E.07089
G1 X190.5 Y183.267 E.09058
G1 X159.5 Y183.267 E1.31953
G1 X157.882 Y182.873 E.07089
G1 X156.627 Y181.778 E.07089
G1 X155.983 Y179.75 E.09058
G1 X155.983 Y170.25 E.40437
G1 X156.377 Y168.632 E.07089
G1 X156.969 Y167.953 E.03832
M204 S8000
G1 E-.75 F3000
G1 X181.757 Y171.663 F18000
G1 E.75 F1800
M204 S4000
;TYPE:Perimeter
;WIDTH:0.559999
G1 F1740.547
G1 X189.086 Y171.664 E.31195
G1 X189.086 Y178.336 E.28399
G1 X181.912 Y178.336 E.30535
G1 X181.902 Y172.268 E.25829
G1 X181.771 Y171.721 E.02392
M204 S8000
G1 X181.01 Y171.393 F18000
M204 S4000
G1 F1740.547
G1 X180.944 Y171.306 E.00465
G1 X180.749 Y171.163 E.01028
G1 X181 Y171.146 E.01071
G1 X189.603 Y171.147 E.3662
G1 X189.603 Y178.853 E.32801
G1 X181.396 Y178.853 E.34934
G1 X181.385 Y172.268 E.28027
G1 X181.325 Y171.971 E.01293
G1 X181.176 Y171.613 E.01648
G1 X181.046 Y171.441 E.0092
M204 S8000
G1 E-.75 F3000
G1 X168.088 Y171.664 F18000
G1 E.75 F1800
M204 S4000
G1 F1740.547
G1 X168.098 Y177.732 E.25829
G1 X168.246 Y178.345 E.02683
G1 X160.914 Y178.337 E.31209
G1 X160.914 Y171.664 E.28404
G1 X168.028 Y171.664 E.3028
M204 S8000
G1 X168.604 Y171.147 F18000
M204 S4000
G1 F1740.547
G1 X168.615 Y177.732 E.28027
G1 X168.675 Y178.029 E.01293
G1 X168.824 Y178.387 E.01648
G1 X169.068 Y178.704 E.01703
G1 X169.272 Y178.844 E.01054
G1 X169.242 Y178.863 E.00152
G1 X160.397 Y178.854 E.37649
G1 X160.397 Y171.147 E.32804
G1 X168.544 Y171.147 E.34678
M204 S8000
G1 X169.12 Y170.63 F18000
M204 S4000
;TYPE:External perimeter
G1 F1740.547
G1 X169.132 Y177.731 E.30224
G1 X169.301 Y178.187 E.02072
G1 X169.489 Y178.374 E.01128
G1 X169.94 Y178.497 E.0199
G1 X170.047 Y178.488 E.00456
;WIDTH:0.541836
G1 F1803.911
G1 X170.176 Y178.42 E.00597
;WIDTH:0.501711
G1 F1961.68
G1 X170.304 Y178.353 E.00549
;WIDTH:0.461585
G1 F2149.692
G1 X170.433 Y178.285 E.00501
;WIDTH:0.421459
G1 F2377.562
G1 X179.335 Y171.415 E.3504
;WIDTH:0.422635
G1 F2370.199
G1 X179.369 Y171.39 E.00132
;WIDTH:0.468423
G1 F2115.144
G1 X179.538 Y171.288 E.00691
;WIDTH:0.514211
G1 F1909.648
G1 X179.708 Y171.186 E.00766
;WIDTH:0.559999
G1 F1740.547
G1 X180.605 Y170.621 E.04515
G1 X190.12 Y170.63 E.40499
G1 X190.12 Y175 E.186
G1 X190.12 Y179.37 E.18603
G1 X180.88 Y179.37 E.39332
G1 X180.868 Y172.269 E.30224
G1 X180.848 Y172.17 E.00431
G1 X180.621 Y171.71 E.02182
G1 X180.409 Y171.578 E.01066
G1 X179.952 Y171.508 E.01964
;WIDTH:0.549474
G1 F1776.711
G1 X179.824 Y171.577 E.00608
;WIDTH:0.506802
G1 F1940.149
G1 X179.695 Y171.646 E.00557
;WIDTH:0.46413
G1 F2136.702
G1 X179.567 Y171.715 E.00505
;WIDTH:0.421459
G1 F2377.562
G1 X170.665 Y178.585 E.3504
;WIDTH:0.422635
G1 F2370.199
G1 X170.631 Y178.61 E.00132
;WIDTH:0.468423
G1 F2115.144
G1 X170.462 Y178.712 E.00691
;WIDTH:0.514211
G1 F1909.648
G1 X170.292 Y178.814 E.00766
;WIDTH:0.559999
G1 F1740.547
G1 X169.392 Y179.38 E.04527
G1 X159.88 Y179.37 E.4049
G1 X159.88 Y170.63 E.37203
G1 X169.06 Y170.63 E.39077
M204 S8000
G1 X169.014 Y171.016 F18000
G1 X166.857 Y171.845
M204 S4000
;TYPE:Solid infill
;WIDTH:0.562518
G1 F1732.108
G1 X167.676 Y172.664 E.04956
G1 X167.677 Y173.4 E.03148
G1 X166.354 Y172.078 E.08
G1 X165.62 Y172.078 E.03143
G1 X167.678 Y174.136 E.12452
G1 X167.679 Y174.872 E.03148
G1 X164.885 Y172.078 E.16904
G1 X164.15 Y172.078 E.03143
G1 X167.681 Y175.608 E.21356
G1 X167.682 Y176.344 E.03148
G1 X163.415 Y172.078 E.25808
G1 X162.68 Y172.078 E.03143
G1 X167.683 Y177.08 E.3026
G1 X167.684 Y177.748 E.02857
G1 X167.701 Y177.833 E.00371
G1 X161.946 Y172.078 E.34815
G1 X161.328 Y172.078 E.02642
G1 X161.328 Y172.195 E.00501
G1 X167.063 Y177.93 E.34692
G1 X166.327 Y177.929 E.03146
G1 X161.328 Y172.93 E.30242
G1 X161.328 Y173.665 E.03143
G1 X165.592 Y177.928 E.25792
G1 X164.856 Y177.928 E.03146
G1 X161.328 Y174.399 E.21343
G1 X161.328 Y175.134 E.03143
G1 X164.121 Y177.927 E.16893
G1 X163.385 Y177.926 E.03146
G1 X161.328 Y175.869 E.12444
G1 X161.328 Y176.604 E.03143
G1 X162.649 Y177.925 E.07994
G1 X161.914 Y177.925 E.03146
G1 X161.095 Y177.106 E.04952
M204 S8000
G1 E-.75 F3000
G1 X188.905 Y172.895 F18000
G1 E.75 F1800
M204 S4000
;WIDTH:0.562467
G1 F1732.278
G1 X188.087 Y172.077 E.04947
G1 X187.352 Y172.077 E.03143
G1 X188.672 Y173.397 E.07985
G1 X188.672 Y174.132 E.03142
G1 X186.617 Y172.077 E.12429
G1 X185.882 Y172.077 E.03143
G1 X188.672 Y174.867 E.16874
G1 X188.672 Y175.602 E.03142
G1 X185.147 Y172.077 E.21319
G1 X184.413 Y172.077 E.03143
G1 X188.672 Y176.336 E.25763
G1 X188.672 Y177.071 E.03142
G1 X183.678 Y172.077 E.30208
G1 X182.943 Y172.077 E.03143
G1 X188.672 Y177.806 E.34653
G1 X188.672 Y177.922 E.00497
G1 X188.054 Y177.922 E.02645
G1 X182.299 Y172.168 E.34806
G1 X182.316 Y172.252 E.00367
G1 X182.317 Y172.92 E.0286
G1 X187.319 Y177.922 E.30253
G1 X186.584 Y177.922 E.03142
G1 X182.318 Y173.656 E.25802
G1 X182.319 Y174.392 E.03147
G1 X185.849 Y177.922 E.21351
G1 X185.115 Y177.922 E.03142
G1 X182.321 Y175.128 E.169
G1 X182.322 Y175.864 E.03147
G1 X184.38 Y177.922 E.12449
G1 X183.645 Y177.922 E.03142
G1 X182.323 Y176.6 E.07998
G1 X182.324 Y177.336 E.03147
G1 X183.143 Y178.155 E.04954
M204 S8000
;LAYER_CHANGE
;Z:0.4
;HEIGHT:0.2
;BEFORE_LAYER_CHANGE
;0.4
G92 E0

G1 Z.4 F18000
;AFTER_LAYER_CHANGE
;0.4
M104 S250 ; set temperature
G1 X181.373 Y171.768
;TYPE:Perimeter
;WIDTH:0.439999
G1 F2266.552
G1 X181.297 Y171.54 E.00787
G1 X181.062 Y171.244 E.01236
G1 X189.506 Y171.244 E.27602
G1 X189.506 Y178.756 E.24554
G1 X181.494 Y178.756 E.26188
G1 X181.494 Y172.276 E.21182
G1 X181.47 Y172.061 E.00707
G1 X181.392 Y171.825 E.00811
G1 X180.998 Y171.855 F18000
G1 F2266.552
G1 X180.897 Y171.649 E.00747
G1 X180.592 Y171.362 E.01371
G1 X180.225 Y171.217 E.0129
G1 X180.704 Y170.847 E.01977
G1 X189.903 Y170.847 E.3007
G1 X189.903 Y179.153 E.27149
G1 X181.097 Y179.153 E.28784
G1 X181.097 Y172.276 E.2248
G1 X181.024 Y171.909 E.01222
G1 E-.75 F3000
G1 Z1 F18000
G1 X168.506 Y171.244
G1 Z.4
G1 E.75 F1800
G1 F2266.552
G1 X168.506 Y177.724 E.21182
G1 X168.53 Y177.939 E.00707
G1 X168.703 Y178.46 E.01794
G1 X168.938 Y178.756 E.01236
G1 X160.494 Y178.756 E.27602
G1 X160.494 Y171.244 E.24554
G1 X168.446 Y171.244 E.25992
G1 X168.903 Y170.847 F18000
G1 F2266.552
G1 X168.903 Y177.724 E.2248
G1 X168.967 Y178.073 E.01159
G1 X169.103 Y178.351 E.0101
G1 X169.408 Y178.638 E.01371
G1 X169.775 Y178.783 E.0129
G1 X169.296 Y179.153 E.01977
G1 X160.097 Y179.153 E.3007
G1 X160.097 Y170.847 E.27149
G1 X168.843 Y170.847 E.28588
G1 X169.29 Y170.46 F18000
;TYPE:External perimeter
;WIDTH:0.419999
G1 F2386.768
G1 X169.29 Y177.724 E.22549
G1 X169.345 Y177.987 E.00834
G1 X169.431 Y178.146 E.0056
G1 X169.626 Y178.317 E.00805
G1 X169.95 Y178.427 E.01064
;WIDTH:0.42608
G1 F2348.888
G1 X170.259 Y178.383 E.00982
G1 X170.433 Y178.285 E.00631
;WIDTH:0.421459
G1 F2377.562
G1 X179.335 Y171.415 E.3504
;WIDTH:0.429103
G1 F2330.501
G1 X179.919 Y170.964 E.02344
;WIDTH:0.419999
G1 F2386.768
G1 X180.572 Y170.46 E.0256
G1 X190.29 Y170.46 E.30167
G1 X190.29 Y175 E.14092
G1 X190.29 Y179.54 E.14092
G1 X180.71 Y179.54 E.29737
G1 X180.71 Y172.276 E.22549
G1 X180.655 Y172.013 E.00834
G1 X180.569 Y171.854 E.0056
G1 X180.374 Y171.683 E.00805
G1 X180.05 Y171.573 E.01064
;WIDTH:0.426079
G1 F2348.894
G1 X179.741 Y171.617 E.00982
G1 X179.567 Y171.715 E.00631
;WIDTH:0.421459
G1 F2377.562
G1 X170.665 Y178.585 E.3504
;WIDTH:0.429104
G1 F2330.495
G1 X170.081 Y179.036 E.02344
;WIDTH:0.419999
G1 F2386.768
G1 X169.428 Y179.54 E.0256
G1 X159.71 Y179.54 E.30167
G1 X159.71 Y170.46 E.28185
G1 X169.23 Y170.46 E.29551
G1 X169.183 Y170.845 F18000
G1 X167.773 Y178.617
M204 S12000
;TYPE:Solid infill
;WIDTH:0.442588
G1 F2251.869
G1 X168.25 Y178.14 E.02219
G1 X168.219 Y178.003 E.00462
G1 X168.188 Y177.636 E.01211
G1 X167.386 Y178.438 E.03732
G1 X166.821 Y178.438 E.0186
G1 X168.188 Y177.071 E.06362
G1 X168.188 Y176.506 E.0186
G1 X166.256 Y178.438 E.08992
G1 X165.69 Y178.438 E.0186
G1 X168.188 Y175.94 E.11622
G1 X168.188 Y175.375 E.0186
G1 X165.125 Y178.438 E.14251
G1 X164.56 Y178.438 E.0186
G1 X168.188 Y174.81 E.16881
G1 X168.188 Y174.245 E.0186
G1 X163.995 Y178.438 E.19511
G1 X163.43 Y178.438 E.0186
G1 X168.188 Y173.68 E.22141
G1 X168.188 Y173.114 E.0186
G1 X162.864 Y178.438 E.24771
G1 X162.299 Y178.438 E.0186
G1 X168.188 Y172.549 E.27401
G1 X168.188 Y171.984 E.0186
G1 X161.734 Y178.438 E.3003
G1 X161.169 Y178.438 E.0186
G1 X168.045 Y171.562 E.31994
G1 X167.48 Y171.562 E.0186
G1 X160.812 Y178.23 E.31025
G1 X160.812 Y177.665 E.0186
G1 X166.915 Y171.562 E.28395
G1 X166.349 Y171.562 E.0186
G1 X160.812 Y177.099 E.25765
G1 X160.812 Y176.534 E.0186
G1 X165.784 Y171.562 E.23136
G1 X165.219 Y171.562 E.0186
G1 X160.812 Y175.969 E.20506
G1 X160.812 Y175.404 E.0186
G1 X164.654 Y171.562 E.17876
G1 X164.089 Y171.562 E.0186
G1 X160.812 Y174.839 E.15246
G1 X160.812 Y174.273 E.0186
G1 X163.523 Y171.562 E.12616
G1 X162.958 Y171.562 E.0186
G1 X160.812 Y173.708 E.09986
G1 X160.812 Y173.143 E.0186
G1 X162.393 Y171.562 E.07357
G1 X161.828 Y171.562 E.0186
G1 X160.812 Y172.578 E.04727
G1 X160.812 Y172.012 E.0186
G1 X161.441 Y171.383 E.02928
M204 S8000
G1 E-.75 F3000
G1 Z1 F18000
G1 X188.559 Y178.617
G1 Z.4
G1 E.75 F1800
M204 S12000
G1 F2251.869
G1 X189.188 Y177.987 E.02929
G1 X189.188 Y177.422 E.0186
G1 X188.172 Y178.438 E.04727
G1 X187.607 Y178.438 E.0186
G1 X189.188 Y176.857 E.07357
G1 X189.188 Y176.292 E.0186
G1 X187.042 Y178.438 E.09987
G1 X186.477 Y178.438 E.0186
G1 X189.188 Y175.727 E.12617
G1 X189.188 Y175.161 E.0186
G1 X185.911 Y178.438 E.15247
G1 X185.346 Y178.438 E.0186
G1 X189.188 Y174.596 E.17877
G1 X189.188 Y174.031 E.0186
G1 X184.781 Y178.438 E.20506
G1 X184.216 Y178.438 E.0186
G1 X189.188 Y173.466 E.23136
G1 X189.188 Y172.9 E.0186
G1 X183.65 Y178.438 E.25766
G1 X183.085 Y178.438 E.0186
G1 X189.188 Y172.335 E.28396
G1 X189.188 Y171.77 E.0186
G1 X182.52 Y178.438 E.31026
G1 X181.955 Y178.438 E.0186
G1 X188.831 Y171.562 E.31994
G1 X188.266 Y171.562 E.0186
G1 X181.812 Y178.016 E.3003
G1 X181.812 Y177.451 E.0186
G1 X187.701 Y171.562 E.274
G1 X187.136 Y171.562 E.0186
G1 X181.812 Y176.886 E.2477
G1 X181.812 Y176.32 E.0186
G1 X186.57 Y171.562 E.2214
G1 X186.005 Y171.562 E.0186
G1 X181.812 Y175.755 E.1951
G1 X181.812 Y175.19 E.0186
G1 X185.44 Y171.562 E.16881
G1 X184.875 Y171.562 E.0186
G1 X181.812 Y174.625 E.14251
G1 X181.812 Y174.059 E.0186
G1 X184.309 Y171.562 E.11621
G1 X183.744 Y171.562 E.0186
G1 X181.812 Y173.494 E.08991
G1 X181.812 Y172.929 E.0186
G1 X183.179 Y171.562 E.06361
G1 X182.614 Y171.562 E.0186
G1 X181.812 Y172.364 E.03731
G1 X181.781 Y171.997 E.01211
G1 X181.75 Y171.86 E.00462
G1 X182.227 Y171.383 E.02219
M204 S8000
;LAYER_CHANGE
;Z:0.6
;HEIGHT:0.2
;BEFORE_LAYER_CHANGE
;0.6
G92 E0

G1 Z.6 F18000
;AFTER_LAYER_CHANGE
;0.6
G1 X181.349 Y171.69
;TYPE:Perimeter
;WIDTH:0.439999
G1 F2266.552
G1 X181.234 Y171.45 E.00868
G1 X181.064 Y171.244 E.00875
G1 X189.506 Y171.244 E.27595
G1 X189.506 Y178.756 E.24554
G1 X181.494 Y178.756 E.26188
G1 X181.494 Y172.276 E.21182
G1 X181.42 Y171.838 E.01451
G1 X181.375 Y171.744 E.00341
G1 X180.997 Y171.853 F18000
G1 F2266.552
G1 X180.923 Y171.696 E.00566
G1 X180.78 Y171.516 E.0075
G1 X180.526 Y171.318 E.01053
G1 X180.225 Y171.216 E.01039
G1 X180.704 Y170.847 E.01975
G1 X189.903 Y170.847 E.3007
G1 X189.903 Y179.153 E.27149
G1 X181.097 Y179.153 E.28784
G1 X181.097 Y172.276 E.2248
G1 X181.023 Y171.907 E.0123
G1 E-.75 F3000
G1 Z1.2 F18000
G1 X168.506 Y171.244
G1 Z.6
G1 E.75 F1800
G1 F2266.552
G1 X168.506 Y177.723 E.21178
G1 X168.528 Y177.965 E.00793
G1 X168.714 Y178.468 E.01753
G1 X168.942 Y178.756 E.01202
G1 X160.494 Y178.756 E.27615
G1 X160.494 Y171.244 E.24554
G1 X168.446 Y171.244 E.25992
G1 X169.469 Y178.662 F18000
G1 F2266.552
G1 X169.775 Y178.783 E.01077
G1 X169.296 Y179.153 E.01977
G1 X160.097 Y179.153 E.3007
G1 X160.097 Y170.847 E.27149
G1 X168.903 Y170.847 E.28784
G1 X168.903 Y177.723 E.22476
G1 X168.922 Y177.916 E.00632
G1 X169.072 Y178.295 E.01333
G1 X169.229 Y178.493 E.00825
G1 X169.413 Y178.64 E.0077
G1 X169.626 Y178.317 F18000
;TYPE:External perimeter
;WIDTH:0.419999
G1 F2386.768
G1 X169.951 Y178.427 E.01064
;WIDTH:0.42608
G1 F2348.888
G1 X170.259 Y178.383 E.00982
G1 X170.433 Y178.285 E.00631
;WIDTH:0.421459
G1 F2377.562
G1 X179.788 Y171.065 E.36822
;WIDTH:0.419999
G1 F2386.768
