; generated by PrusaSlicer 2.5.0+win64 on 2022-10-03 at 16:51:42 UTC


;
;

;
;
; TODO: check the size of the extruder and the y-bar clearance. Optimize & test supports.

; external perimeters extrusion width = 0.42mm
; perimeters extrusion width = 0.44mm
; infill extrusion width = 0.44mm
; solid infill extrusion width = 0.44mm
; top infill extrusion width = 0.44mm
; first layer extrusion width = 0.56mm

M107
M190 S80 ; set bed temperature and wait for it to be reached
M104 S255 ; set temperature
;TYPE:Custom
print_start
M109 S255 ; set temperature and wait for it to be reached
G21 ; set units to millimeters
G90 ; use absolute coordinates
M83 ; use relative distances for extrusion
SET_PRESSURE_ADVANCE EXTRUDER=extruder ADVANCE=0.065
SET_HEATER_TEMPERATURE HEATER=heater_bed TARGET=80
SET_HEATER_TEMPERATURE HEATER=extruder TARGET=255
M107
;LAYER_CHANGE
;Z:0.2
;HEIGHT:0.2
;BEFORE_LAYER_CHANGE
;0.2
G92 E0

G1 Z.2 F18000
;AFTER_LAYER_CHANGE
;0.2
G1 E-.75 F3000
G1 X165.833 Y159.753 F18000
G1 E.75 F1800
M204 S4000
;TYPE:Skirt/Brim
;WIDTH:0.56
G1 F3240
G1 X167.565 Y158.396 E.09366
G1 X170.4 Y157.698 E.12427
G1 X179.6 Y157.698 E.3916
G1 X181.764 Y158.094 E.09366
G1 X183.647 Y159.233 E.09366
G1 X185.004 Y160.965 E.09366
G1 X185.702 Y163.8 E.12427
G1 X185.702 Y182.3 E.78746
G1 X185.306 Y184.464 E.09366
G1 X184.167 Y186.347 E.09366
G1 X182.435 Y187.704 E.09366
G1 X179.6 Y188.402 E.12427
G1 X170.4 Y188.402 E.3916
G1 X168.236 Y188.006 E.09366
G1 X166.353 Y186.867 E.09366
G1 X164.996 Y185.135 E.09366
G1 X164.298 Y182.3 E.12427
G1 X164.298 Y163.8 E.78746
G1 X164.694 Y161.636 E.09366
G1 X165.802 Y159.804 E.09111
M204 S8000
G1 X166.258 Y160.095 F18000
M204 S4000
G1 F3240
G1 X166.344 Y159.96 E.00683
G1 X168.053 Y158.732 E.08957
G1 X170.4 Y158.215 E.10231
G1 X179.6 Y158.215 E.3916
G1 X181.667 Y158.611 E.08957
G1 X183.44 Y159.744 E.08957
G1 X184.668 Y161.453 E.08957
G1 X185.185 Y163.8 E.10231
G1 X185.185 Y182.3 E.78746
G1 X184.789 Y184.367 E.08957
G1 X183.656 Y186.14 E.08957
G1 X181.947 Y187.368 E.08957
G1 X179.6 Y187.885 E.10231
G1 X170.4 Y187.885 E.3916
G1 X168.333 Y187.489 E.08957
G1 X166.56 Y186.356 E.08957
G1 X165.332 Y184.647 E.08957
G1 X164.815 Y182.3 E.10231
G1 X164.815 Y163.8 E.78746
G1 X165.211 Y161.733 E.08957
G1 X166.225 Y160.146 E.08019
M204 S8000
G1 X166.671 Y160.448 F18000
M204 S4000
G1 F3240
G1 X166.854 Y160.179 E.01388
G1 X168.534 Y159.088 E.08529
G1 X170.4 Y158.732 E.08084
G1 X179.6 Y158.732 E.3916
G1 X181.564 Y159.128 E.08529
G1 X183.221 Y160.254 E.08529
G1 X184.312 Y161.934 E.08529
G1 X184.668 Y163.8 E.08084
G1 X184.668 Y182.3 E.78746
G1 X184.272 Y184.264 E.08529
G1 X183.146 Y185.921 E.08529
G1 X181.466 Y187.012 E.08529
G1 X179.6 Y187.368 E.08084
G1 X170.4 Y187.368 E.3916
G1 X168.436 Y186.972 E.08529
G1 X166.779 Y185.846 E.08529
G1 X165.688 Y184.166 E.08529
G1 X165.332 Y182.3 E.08084
G1 X165.332 Y163.8 E.78746
G1 X165.728 Y161.836 E.08529
G1 X166.637 Y160.498 E.06885
M204 S8000
G1 X167.069 Y160.813 F18000
M204 S4000
G1 F3240
G1 X167.362 Y160.411 E.0212
G1 X169.009 Y159.467 E.08077
G1 X170.4 Y159.249 E.05995
G1 X179.6 Y159.249 E.3916
G1 X181.456 Y159.644 E.08077
G1 X182.989 Y160.762 E.08077
G1 X183.933 Y162.409 E.08077
G1 X184.151 Y163.8 E.05995
G1 X184.151 Y182.3 E.78746
G1 X183.756 Y184.156 E.08077
G1 X182.638 Y185.689 E.08077
G1 X180.991 Y186.633 E.08077
G1 X179.6 Y186.851 E.05995
G1 X170.4 Y186.851 E.3916
G1 X168.544 Y186.456 E.08077
G1 X167.011 Y185.338 E.08077
G1 X166.067 Y183.691 E.08077
G1 X165.849 Y182.3 E.05995
G1 X165.849 Y163.8 E.78746
G1 X166.244 Y161.944 E.08077
G1 X167.034 Y160.862 E.05702
M204 S8000
G1 X167.449 Y161.19 F18000
M204 S4000
G1 F3240
G1 X167.869 Y160.659 E.02882
G1 X169.472 Y159.874 E.07599
G1 X170.4 Y159.766 E.03976
G1 X179.6 Y159.766 E.3916
G1 X181.341 Y160.161 E.07599
G1 X182.741 Y161.269 E.07599
G1 X183.526 Y162.872 E.07599
G1 X183.634 Y163.8 E.03976
G1 X183.634 Y182.3 E.78746
G1 X183.239 Y184.041 E.07599
G1 X182.131 Y185.441 E.07599
G1 X180.528 Y186.226 E.07599
G1 X179.6 Y186.334 E.03976
G1 X170.4 Y186.334 E.3916
G1 X168.659 Y185.939 E.07599
G1 X167.259 Y184.831 E.07599
G1 X166.474 Y183.228 E.07599
G1 X166.366 Y182.3 E.03976
G1 X166.366 Y163.8 E.78746
G1 X166.761 Y162.059 E.07599
G1 X167.411 Y161.237 E.04462
M204 S8000
G1 X167.803 Y161.579 F18000
M204 S4000
G1 F3240
G1 X168.372 Y160.927 E.03682
G1 X170.4 Y160.283 E.09058
G1 X179.6 Y160.283 E.3916
G1 X181.218 Y160.677 E.07089
G1 X182.473 Y161.772 E.07089
G1 X183.117 Y163.8 E.09058
G1 X183.117 Y182.3 E.78746
G1 X182.723 Y183.918 E.07089
G1 X181.628 Y185.173 E.07089
G1 X179.6 Y185.817 E.09058
G1 X170.4 Y185.817 E.3916
G1 X168.782 Y185.423 E.07089
G1 X167.527 Y184.328 E.07089
G1 X166.883 Y182.3 E.09058
G1 X166.883 Y163.8 E.78746
G1 X167.277 Y162.182 E.07089
G1 X167.764 Y161.624 E.03151
M204 S8000
G1 E-.75 F3000
G1 X171.814 Y165.214 F18000
G1 E.75 F1800
M204 S4000
;TYPE:Perimeter
;WIDTH:0.559999
G1 F4320
G1 X178.186 Y165.214 E.27121
G1 X178.186 Y180.886 E.66707
G1 X171.814 Y180.886 E.27121
G1 X171.814 Y165.274 E.66452
M204 S8000
G1 X171.297 Y164.697 F18000
M204 S4000
G1 F4320
G1 X178.703 Y164.697 E.31523
G1 X178.703 Y181.403 E.71109
G1 X171.297 Y181.403 E.31523
G1 X171.297 Y164.757 E.70854
M204 S8000
G1 X170.78 Y164.18 F18000
M204 S4000
;TYPE:External perimeter
G1 F3456
G1 X179.22 Y164.18 E.35925
G1 X179.22 Y181.92 E.75511
G1 X170.78 Y181.92 E.35925
G1 X170.78 Y164.24 E.75256
M204 S8000
G1 X171.152 Y164.327 F18000
G1 E-.75 F3000
G1 X176.948 Y165.395 F18000
G1 E.75 F1800
M204 S4000
;TYPE:Solid infill
;WIDTH:0.565274
G1 F5168.909
G1 X177.772 Y166.219 E.05009
G1 X177.772 Y166.958 E.03176
G1 X176.442 Y165.628 E.08087
G1 X175.704 Y165.628 E.03176
G1 X177.772 Y167.696 E.12579
G1 X177.772 Y168.435 E.03176
G1 X174.965 Y165.628 E.17071
G1 X174.226 Y165.628 E.03176
G1 X177.772 Y169.174 E.21563
G1 X177.772 Y169.912 E.03176
G1 X173.488 Y165.628 E.26055
G1 X172.749 Y165.628 E.03176
G1 X177.772 Y170.651 E.30548
G1 X177.772 Y171.39 E.03176
G1 X172.228 Y165.846 E.33716
G1 X172.228 Y166.584 E.03176
G1 X177.772 Y172.129 E.33716
G1 X177.772 Y172.867 E.03176
G1 X172.228 Y167.323 E.33716
G1 X172.228 Y168.062 E.03176
G1 X177.772 Y173.606 E.33716
G1 X177.772 Y174.345 E.03176
G1 X172.228 Y168.8 E.33716
G1 X172.228 Y169.539 E.03176
G1 X177.772 Y175.084 E.33716
G1 X177.772 Y175.822 E.03176
G1 X172.228 Y170.278 E.33716
G1 X172.228 Y171.017 E.03176
G1 X177.772 Y176.561 E.33716
G1 X177.772 Y177.3 E.03176
G1 X172.228 Y171.755 E.33716
G1 X172.228 Y172.494 E.03176
G1 X177.772 Y178.038 E.33716
G1 X177.772 Y178.777 E.03176
G1 X172.228 Y173.233 E.33716
G1 X172.228 Y173.971 E.03176
G1 X177.772 Y179.516 E.33716
G1 X177.772 Y180.255 E.03176
G1 X172.228 Y174.71 E.33716
G1 X172.228 Y175.449 E.03176
G1 X177.251 Y180.472 E.30547
G1 X176.512 Y180.472 E.03176
G1 X172.228 Y176.188 E.26055
G1 X172.228 Y176.926 E.03176
G1 X175.774 Y180.472 E.21563
G1 X175.035 Y180.472 E.03176
G1 X172.228 Y177.665 E.1707
G1 X172.228 Y178.404 E.03176
G1 X174.296 Y180.472 E.12578
G1 X173.557 Y180.472 E.03176
G1 X172.228 Y179.143 E.08086
G1 X172.228 Y179.881 E.03176
G1 X173.051 Y180.705 E.05009
M204 S8000
M106 S255
;LAYER_CHANGE
;Z:0.4
;HEIGHT:0.2
;BEFORE_LAYER_CHANGE
;0.4
G92 E0

G1 Z.4 F18000
;AFTER_LAYER_CHANGE
;0.4
M104 S250 ; set temperature
G1 X178.806 Y168.6
;TYPE:Perimeter
;WIDTH:0.439999
G1 F6799.655
G1 X178.806 Y181.506 E.42185
G1 X171.194 Y181.506 E.2488
G1 X171.194 Y164.794 E.54626
G1 X178.806 Y164.794 E.2488
G1 X178.806 Y168.54 E.12244
G1 X179.203 Y168.6 F18000
G1 F6799.655
G1 X179.203 Y181.903 E.43483
G1 X170.797 Y181.903 E.27476
G1 X170.797 Y164.397 E.57221
G1 X179.203 Y164.397 E.27476
G1 X179.203 Y168.54 E.13542
G1 X179.59 Y168.6 F18000
;TYPE:External perimeter
;WIDTH:0.419999
G1 F5760
G1 X179.59 Y182.29 E.42495
G1 X170.41 Y182.29 E.28495
G1 X170.41 Y164.01 E.56742
G1 X179.59 Y164.01 E.28495
G1 X179.59 Y168.54 E.14061
G1 X179.339 Y168.911 F18000
G1 X177.855 Y181.367
M204 S12000
;TYPE:Solid infill
;WIDTH:0.444403
G1 F6725.067
G1 X178.488 Y180.734 E.0296
G1 X178.488 Y180.166 E.01877
G1 X177.466 Y181.188 E.04779
G1 X176.898 Y181.188 E.01877
G1 X178.488 Y179.598 E.07433
G1 X178.488 Y179.03 E.01876
G1 X176.33 Y181.188 E.10086
G1 X175.762 Y181.188 E.01877
G1 X178.488 Y178.462 E.1274
G1 X178.488 Y177.895 E.01877
G1 X175.195 Y181.188 E.15394
G1 X174.627 Y181.188 E.01877
G1 X178.488 Y177.327 E.18048
G1 X178.488 Y176.759 E.01876
G1 X174.059 Y181.188 E.20701
G1 X173.491 Y181.188 E.01877
G1 X178.488 Y176.191 E.23355
G1 X178.488 Y175.623 E.01877
G1 X172.923 Y181.188 E.26009
G1 X172.356 Y181.188 E.01877
G1 X178.488 Y175.056 E.28663
G1 X178.488 Y174.488 E.01877
G1 X171.788 Y181.188 E.31317
G1 X171.512 Y181.188 E.00912
G1 X171.512 Y180.896 E.00964
G1 X178.488 Y173.92 E.32607
G1 X178.488 Y173.352 E.01877
G1 X171.512 Y180.329 E.32607
G1 X171.512 Y179.761 E.01876
G1 X178.488 Y172.785 E.32607
G1 X178.488 Y172.217 E.01876
G1 X171.512 Y179.193 E.32607
G1 X171.512 Y178.625 E.01876
G1 X178.488 Y171.649 E.32607
G1 X178.488 Y171.081 E.01876
G1 X171.512 Y178.058 E.32607
G1 X171.512 Y177.49 E.01876
G1 X178.488 Y170.513 E.32607
G1 X178.488 Y169.946 E.01876
G1 X171.512 Y176.922 E.32607
G1 X171.512 Y176.354 E.01877
G1 X178.488 Y169.378 E.32607
G1 X178.488 Y168.81 E.01877
G1 X171.512 Y175.786 E.32607
G1 X171.512 Y175.219 E.01876
G1 X178.488 Y168.242 E.32607
G1 X178.488 Y167.675 E.01876
G1 X171.512 Y174.651 E.32607
G1 X171.512 Y174.083 E.01877
G1 X178.488 Y167.107 E.32607
G1 X178.488 Y166.539 E.01877
G1 X171.512 Y173.515 E.32607
G1 X171.512 Y172.948 E.01876
G1 X178.488 Y165.971 E.32607
G1 X178.488 Y165.403 E.01876
G1 X171.512 Y172.38 E.32607
G1 X171.512 Y171.812 E.01877
G1 X178.212 Y165.112 E.31316
G1 X177.644 Y165.112 E.01877
G1 X171.512 Y171.244 E.28662
G1 X171.512 Y170.676 E.01876
G1 X177.076 Y165.112 E.26008
G1 X176.509 Y165.112 E.01876
G1 X171.512 Y170.109 E.23355
G1 X171.512 Y169.541 E.01877
G1 X175.941 Y165.112 E.20701
G1 X175.373 Y165.112 E.01877
G1 X171.512 Y168.973 E.18047
G1 X171.512 Y168.405 E.01876
G1 X174.805 Y165.112 E.15393
G1 X174.237 Y165.112 E.01877
G1 X171.512 Y167.837 E.1274
G1 X171.512 Y167.27 E.01877
G1 X173.67 Y165.112 E.10086
G1 X173.102 Y165.112 E.01876
G1 X171.512 Y166.702 E.07432
G1 X171.512 Y166.134 E.01876
G1 X172.534 Y165.112 E.04778
G1 X171.966 Y165.112 E.01877
G1 X171.333 Y165.745 E.0296
M204 S8000
;LAYER_CHANGE
;Z:0.6
;HEIGHT:0.2
;BEFORE_LAYER_CHANGE
;0.6
G92 E0

G1 Z.6 F18000
;AFTER_LAYER_CHANGE
;0.6
G1 X170.994 Y164.794
;TYPE:Perimeter
;WIDTH:0.439999
G1 F6799.655
G1 X179.006 Y164.794 E.26188
G1 X179.006 Y181.706 E.55279
G1 X170.994 Y181.706 E.26188
G1 X170.994 Y164.854 E.55083
G1 X170.597 Y164.397 F18000
G1 F6799.655
G1 X179.403 Y164.397 E.28784
G1 X179.403 Y182.103 E.57875
G1 X170.597 Y182.103 E.28784
G1 X170.597 Y164.457 E.57679
G1 X170.21 Y164.01 F18000
;TYPE:External perimeter
;WIDTH:0.419999
G1 F5760
G1 X179.79 Y164.01 E.29737
G1 X179.79 Y182.49 E.57363
G1 X170.21 Y182.49 E.29737
G1 X170.21 Y164.07 E.57177
G1 X170.584 Y164.152 F18000
G1 X178.054 Y164.933
M204 S12000
;TYPE:Solid infill
;WIDTH:0.444932
G1 F6716.218
G1 X178.688 Y165.568 E.02969
G1 X178.688 Y166.136 E.01881
G1 X177.664 Y165.112 E.04794
G1 X177.095 Y165.112 E.01881
G1 X178.688 Y166.705 E.07455
G1 X178.688 Y167.273 E.01881
G1 X176.527 Y165.112 E.10115
G1 X175.958 Y165.112 E.01881
G1 X178.688 Y167.842 E.12776
G1 X178.688 Y168.41 E.01881
G1 X175.39 Y165.112 E.15437
G1 X174.821 Y165.112 E.01881
G1 X178.688 Y168.979 E.18098
G1 X178.688 Y169.547 E.01881
G1 X174.253 Y165.112 E.20759
G1 X173.684 Y165.112 E.01881
G1 X178.688 Y170.116 E.23419
G1 X178.688 Y170.684 E.01881
G1 X173.116 Y165.112 E.2608
G1 X172.547 Y165.112 E.01881
G1 X178.688 Y171.253 E.28741
G1 X178.688 Y171.821 E.01881
G1 X171.979 Y165.112 E.31402
G1 X171.41 Y165.112 E.01881
G1 X178.688 Y172.39 E.34062
G1 X178.688 Y172.959 E.01881
G1 X171.312 Y165.582 E.34522
G1 X171.312 Y166.151 E.01881
G1 X178.688 Y173.527 E.34522
G1 X178.688 Y174.096 E.01881
G1 X171.312 Y166.719 E.34522
G1 X171.312 Y167.288 E.01881
G1 X178.688 Y174.664 E.34522
G1 X178.688 Y175.233 E.01881
G1 X171.312 Y167.856 E.34522
G1 X171.312 Y168.425 E.01881
G1 X178.688 Y175.801 E.34522
G1 X178.688 Y176.37 E.01881
G1 X171.312 Y168.993 E.34522
G1 X171.312 Y169.562 E.01881
G1 X178.688 Y176.938 E.34522
G1 X178.688 Y177.507 E.01881
G1 X171.312 Y170.13 E.34522
G1 X171.312 Y170.699 E.01881
G1 X178.688 Y178.075 E.34522
G1 X178.688 Y178.644 E.01881
G1 X171.312 Y171.267 E.34522
G1 X171.312 Y171.836 E.01881
G1 X178.688 Y179.212 E.34522
G1 X178.688 Y179.781 E.01881
G1 X171.312 Y172.405 E.34522
G1 X171.312 Y172.973 E.01881
G1 X178.688 Y180.349 E.34522
G1 X178.688 Y180.918 E.01881
G1 X171.312 Y173.542 E.34522
G1 X171.312 Y174.11 E.01881
G1 X178.59 Y181.388 E.34062
G1 X178.021 Y181.388 E.01881
G1 X171.312 Y174.679 E.31401
G1 X171.312 Y175.247 E.01881
G1 X177.453 Y181.388 E.2874
G1 X176.884 Y181.388 E.01881
G1 X171.312 Y175.816 E.2608
G1 X171.312 Y176.384 E.01881
G1 X176.316 Y181.388 E.23419
G1 X175.747 Y181.388 E.01881
G1 X171.312 Y176.953 E.20758
G1 X171.312 Y177.521 E.01881
G1 X175.179 Y181.388 E.18097
G1 X174.61 Y181.388 E.01881
G1 X171.312 Y178.09 E.15437
G1 X171.312 Y178.658 E.01881
G1 X174.042 Y181.388 E.12776
G1 X173.473 Y181.388 E.01881
G1 X171.312 Y179.227 E.10115
G1 X171.312 Y179.795 E.01881
G1 X172.905 Y181.388 E.07454
G1 X172.336 Y181.388 E.01881
G1 X171.312 Y180.364 E.04793
G1 X171.312 Y180.932 E.01881
G1 X171.946 Y181.567 E.02969
M204 S8000
;LAYER_CHANGE
;Z:0.8
;HEIGHT:0.2
;BEFORE_LAYER_CHANGE
;0.8
G92 E0

G1 Z.8 F18000
;AFTER_LAYER_CHANGE
;0.8
G1 X170.794 Y164.794
;TYPE:Perimeter
;WIDTH:0.439999
G1 F6799.655
G1 X179.206 Y164.794 E.27495
G1 X179.206 Y181.906 E.55933
G1 X170.794 Y181.906 E.27495
G1 X170.794 Y164.854 E.55737
G1 X170.397 Y164.397 F18000
G1 F6799.655
G1 X179.603 Y164.397 E.30091
G1 X179.603 Y182.303 E.58529
G1 X170.397 Y182.303 E.30091
G1 X170.397 Y164.457 E.58333
G1 X170.01 Y164.01 F18000
;TYPE:External perimeter
;WIDTH:0.419999
G1 F5760
G1 X179.99 Y164.01 E.30979
G1 X179.99 Y182.69 E.57984
G1 X170.01 Y182.69 E.30979
G1 X170.01 Y164.07 E.57798
G1 X170.384 Y164.151 F18000
G1 X171.112 Y172.106
M204 S12000
;TYPE:Internal infill
;WIDTH:0.44
G1 F6799.644
G1 X171.268 Y172.444 E.01217
G1 X171.435 Y173.083 E.02159
G1 X171.475 Y173.722 E.02093
G1 X171.32 Y174.361 E.0215
G1 X171.112 Y174.621 E.01089
M204 S8000
G1 X178.888 Y177.218 F18000
M204 S12000
G1 F6799.644
G1 X178.732 Y177.556 E.01217
G1 X178.565 Y178.195 E.02159
G1 X178.525 Y178.834 E.02093
G1 X178.68 Y179.473 E.0215
G1 X178.888 Y179.733 E.01089
G1 X178.888 Y180.918 E.03874
G1 X178.753 Y180.862 E.00477
G1 X178.162 Y181.453 E.02732
G1 X178.218 Y181.588 E.00477
G1 X176.575 Y181.588 E.0537
G1 X176.588 Y181.391 E.00647
G1 X176.433 Y180.752 E.0215
G1 X175.919 Y180.113 E.0268
G1 X175.1 Y179.473 E.03397
G1 X174.388 Y178.834 E.03128
G1 X173.915 Y178.195 E.02599
G1 X173.62 Y177.556 E.02301
G1 X173.453 Y176.917 E.02159
G1 X173.412 Y176.278 E.02093
G1 X173.567 Y175.639 E.0215
G1 X174.081 Y175 E.0268
G1 X174.9 Y174.361 E.03397
G1 X175.612 Y173.722 E.03128
G1 X176.085 Y173.083 E.02599
G1 X176.38 Y172.444 E.02301
G1 X176.547 Y171.805 E.02159
G1 X176.588 Y171.166 E.02093
G1 X176.433 Y170.527 E.0215
G1 X175.919 Y169.887 E.0268
G1 X175.1 Y169.248 E.03397
G1 X174.388 Y168.609 E.03128
G1 X173.915 Y167.97 E.02599
G1 X173.62 Y167.331 E.02301
G1 X173.453 Y166.692 E.02159
G1 X173.412 Y166.053 E.02093
G1 X173.567 Y165.414 E.0215
G1 X173.81 Y165.112 E.01267
G1 X178.888 Y165.112 E.166
G1 X178.888 Y166.993 E.0615
G1 X178.732 Y167.331 E.01217
G1 X178.565 Y167.97 E.02159
G1 X178.525 Y168.609 E.02093
G1 X178.68 Y169.248 E.0215
G1 X178.888 Y169.508 E.01089
M204 S8000
;LAYER_CHANGE
;Z:1
;HEIGHT:0.2
;BEFORE_LAYER_CHANGE
;1
G92 E0

G1 Z1 F18000
;AFTER_LAYER_CHANGE
;1
G1 X179.406 Y169.2
;TYPE:Perimeter
;WIDTH:0.439999
G1 F6799.655
G1 X179.406 Y182.106 E.42185
G1 X170.594 Y182.106 E.28803
G1 X170.594 Y164.794 E.56587
G1 X179.406 Y164.794 E.28803
G1 X179.406 Y169.14 E.14205
G1 X179.803 Y169.2 F18000
G1 F6799.655
G1 X179.803 Y182.503 E.43483
G1 X170.197 Y182.503 E.31399
G1 X170.197 Y164.397 E.59183
G1 X179.803 Y164.397 E.31399
G1 X179.803 Y169.14 E.15503
