; generated by PrusaSlicer 2.5.0+win64 on 2022-10-03 at 17:51:54 UTC


;
;

;
;
; TODO: check the size of the extruder and the y-bar clearance. Optimize & test supports.

; external perimeters extrusion width = 0.42mm
; perimeters extrusion width = 0.44mm
; infill extrusion width = 0.44mm
; solid infill extrusion width = 0.44mm
; top infill extrusion width = 0.44mm
; first layer extrusion width = 0.56mm

; external perimeters extrusion width = 0.42mm
; perimeters extrusion width = 0.44mm
; infill extrusion width = 0.44mm
; solid infill extrusion width = 0.44mm
; top infill extrusion width = 0.44mm
; first layer extrusion width = 0.56mm

; external perimeters extrusion width = 0.42mm
; perimeters extrusion width = 0.44mm
; infill extrusion width = 0.44mm
; solid infill extrusion width = 0.44mm
; top infill extrusion width = 0.44mm
; first layer extrusion width = 0.56mm

; external perimeters extrusion width = 0.42mm
; perimeters extrusion width = 0.44mm
; infill extrusion width = 0.44mm
; solid infill extrusion width = 0.44mm
; top infill extrusion width = 0.44mm
; first layer extrusion width = 0.56mm

M107
M190 S80 ; set bed temperature and wait for it to be reached
M104 S255 ; set temperature
;TYPE:Custom
print_start
M109 S255 ; set temperature and wait for it to be reached
G21 ; set units to millimeters
G90 ; use absolute coordinates
M83 ; use relative distances for extrusion
SET_PRESSURE_ADVANCE EXTRUDER=extruder ADVANCE=0.065
SET_HEATER_TEMPERATURE HEATER=heater_bed TARGET=80
SET_HEATER_TEMPERATURE HEATER=extruder TARGET=255
M107
;LAYER_CHANGE
;Z:0.2
;HEIGHT:0.2
;BEFORE_LAYER_CHANGE
;0.2
G92 E0

G1 Z.2 F18000
;AFTER_LAYER_CHANGE
;0.2
G1 E-.75 F3000
G1 X149.546 Y161.855 F18000
G1 E.75 F1800
M204 S4000
;TYPE:Skirt/Brim
;WIDTH:0.56
G1 F3240
G1 X168.919 Y146.255 E1.05874
G1 X170.613 Y145.399 E.08077
G1 X171.773 Y145.249 E.04982
G1 X180.973 Y145.249 E.3916
G1 X182.829 Y145.644 E.08077
G1 X184.473 Y146.89 E.08778
G1 X203.099 Y169.29 E1.24005
G1 X203.982 Y170.97 E.08077
G1 X204.151 Y172.2 E.05285
G1 X204.151 Y198.2 E1.1067
G1 X203.756 Y200.056 E.08077
G1 X202.718 Y201.518 E.07632
G1 X201.126 Y202.551 E.08077
G1 X199.5 Y202.851 E.07039
G1 X173.071 Y202.831 E1.12498
G1 X151.971 Y200.831 E.90216
G1 X150.16 Y200.262 E.08077
G1 X148.739 Y199.004 E.08077
G1 X147.955 Y197.276 E.08077
G1 X147.849 Y196.3 E.0418
G1 X147.849 Y165.4 E1.31527
G1 X148.244 Y163.544 E.08077
G1 X149.509 Y161.903 E.0882
M204 S8000
G1 X149.87 Y162.258 F18000
M204 S4000
G1 F3240
G1 X169.243 Y146.658 E1.05874
G1 X170.847 Y145.874 E.07599
G1 X171.773 Y145.766 E.03969
G1 X180.973 Y145.766 E.3916
G1 X182.714 Y146.161 E.07599
G1 X184.075 Y147.221 E.07342
G1 X202.702 Y169.621 E1.24005
G1 X203.511 Y171.212 E.07599
G1 X203.634 Y172.2 E.04238
G1 X203.634 Y198.2 E1.1067
G1 X203.239 Y199.941 E.07599
G1 X202.353 Y201.153 E.0639
G1 X200.842 Y202.104 E.07599
G1 X199.5 Y202.334 E.05796
G1 X173.5 Y202.334 E1.1067
G1 X152.019 Y200.316 E.91836
G1 X150.323 Y199.759 E.07599
G1 X149.034 Y198.524 E.07599
G1 X148.366 Y196.3 E.09883
G1 X148.366 Y165.4 E1.31527
G1 X148.761 Y163.659 E.07599
G1 X149.833 Y162.305 E.0735
M204 S8000
G1 X150.194 Y162.661 F18000
M204 S4000
G1 F3240
G1 X169.567 Y147.061 E1.05874
G1 X171.773 Y146.283 E.09956
G1 X180.973 Y146.283 E.3916
G1 X182.591 Y146.677 E.07089
G1 X183.678 Y147.551 E.05934
G1 X202.304 Y169.951 E1.24005
G1 X203.117 Y172.2 E.10178
G1 X203.117 Y198.2 E1.1067
G1 X202.723 Y199.818 E.07089
G1 X201.987 Y200.787 E.05179
G1 X200.564 Y201.652 E.07089
G1 X199.5 Y201.817 E.04583
G1 X173.5 Y201.817 E1.1067
G1 X152.068 Y199.801 E.91628
G1 X150.494 Y199.256 E.07089
G1 X149.348 Y198.048 E.07089
G1 X148.883 Y196.3 E.077
G1 X148.883 Y165.4 E1.31527
G1 X149.277 Y163.782 E.07089
G1 X150.156 Y162.707 E.0591
M204 S8000
G1 E-.75 F3000
G1 X176.575 Y188.868 F18000
G1 E.75 F1800
M204 S4000
;TYPE:Perimeter
;WIDTH:0.559999
G1 F4320
G1 X176.635 Y189.169 E.01307
G1 X176.892 Y189.563 E.02004
G1 X177.22 Y189.812 E.01752
G1 X177.545 Y189.933 E.01474
G1 X177.829 Y189.964 E.01215
G1 X194.725 Y189.964 E.7192
G1 X195.455 Y189.933 E.03111
G1 X195.78 Y189.812 E.01474
G1 X196.108 Y189.563 E.01752
G1 X196.365 Y189.169 E.02004
G1 X196.464 Y188.671 E.02158
G1 X196.464 Y173.514 E.64518
G1 X198.186 Y173.514 E.07328
G1 X198.186 Y196.886 E.99482
G1 X174.814 Y196.886 E.99482
G1 X174.814 Y173.514 E.99482
G1 X176.536 Y173.514 E.07328
G1 X176.536 Y188.671 E.64518
G1 X176.563 Y188.809 E.00596
M204 S8000
G1 X177.073 Y188.77 F18000
M204 S4000
G1 F4320
G1 X177.113 Y188.97 E.00869
G1 X177.267 Y189.206 E.01202
G1 X177.464 Y189.356 E.01051
G1 X177.829 Y189.447 E.01601
G1 X195.171 Y189.447 E.73821
G1 X195.536 Y189.356 E.01601
G1 X195.733 Y189.206 E.01051
G1 X195.887 Y188.97 E.01202
G1 X195.947 Y188.671 E.01295
G1 X195.947 Y172.997 E.66719
G1 X198.703 Y172.997 E.1173
G1 X198.703 Y197.403 E1.03884
G1 X174.297 Y197.403 E1.03884
G1 X174.297 Y172.997 E1.03884
G1 X177.053 Y172.997 E.1173
G1 X177.061 Y188.711 E.66886
M204 S8000
G1 X177.57 Y188.671 F18000
M204 S4000
;TYPE:External perimeter
G1 F3456
G1 X177.641 Y188.85 E.00817
G1 X177.829 Y188.93 E.00867
G1 X195.171 Y188.93 E.73821
G1 X195.359 Y188.85 E.00867
G1 X195.43 Y188.671 E.00817
G1 X195.43 Y172.48 E.6892
G1 X199.22 Y172.48 E.16132
G1 X199.22 Y197.92 E1.08286
G1 X173.78 Y197.92 E1.08286
G1 X173.78 Y172.48 E1.08286
G1 X177.57 Y172.48 E.16132
G1 X177.57 Y188.611 E.68664
M204 S8000
G1 X177.444 Y188.816 F18000
G1 E-.75 F3000
G1 X198.005 Y174.742 F18000
G1 E.75 F1800
M204 S4000
;TYPE:Solid infill
;WIDTH:0.560599
G1 F5215.588
G1 X197.191 Y173.928 E.04905
G1 X196.878 Y173.928 E.01335
G1 X196.878 Y174.347 E.01785
G1 X197.772 Y175.241 E.0539
G1 X197.772 Y175.973 E.0312
G1 X196.878 Y175.079 E.0539
G1 X196.878 Y175.811 E.0312
G1 X197.772 Y176.705 E.0539
G1 X197.772 Y177.437 E.0312
G1 X196.878 Y176.543 E.0539
G1 X196.878 Y177.275 E.0312
G1 X197.772 Y178.17 E.0539
G1 X197.772 Y178.902 E.0312
G1 X196.878 Y178.007 E.0539
G1 X196.878 Y178.739 E.0312
G1 X197.772 Y179.634 E.0539
G1 X197.772 Y180.366 E.0312
G1 X196.878 Y179.471 E.0539
G1 X196.878 Y180.204 E.0312
G1 X197.772 Y181.098 E.0539
G1 X197.772 Y181.83 E.0312
G1 X196.878 Y180.936 E.0539
G1 X196.878 Y181.668 E.0312
G1 X197.772 Y182.562 E.0539
G1 X197.772 Y183.294 E.0312
G1 X196.878 Y182.4 E.0539
G1 X196.878 Y183.132 E.0312
G1 X197.772 Y184.026 E.0539
G1 X197.772 Y184.758 E.0312
G1 X196.878 Y183.864 E.0539
G1 X196.878 Y184.596 E.0312
G1 X197.772 Y185.491 E.0539
G1 X197.772 Y186.223 E.0312
G1 X196.878 Y185.328 E.0539
G1 X196.878 Y186.06 E.0312
G1 X197.772 Y186.955 E.0539
G1 X197.772 Y187.687 E.0312
G1 X196.878 Y186.793 E.0539
G1 X196.878 Y187.525 E.0312
G1 X197.772 Y188.419 E.0539
G1 X197.772 Y189.151 E.0312
G1 X196.878 Y188.257 E.0539
G1 X196.878 Y188.678 E.01796
G1 X196.853 Y188.964 E.01223
G1 X197.772 Y189.883 E.0554
G1 X197.772 Y190.615 E.0312
G1 X196.645 Y189.488 E.06793
G1 X196.41 Y189.849 E.01833
G1 X196.332 Y189.908 E.00416
G1 X197.772 Y191.347 E.08678
G1 X197.772 Y192.08 E.0312
G1 X195.899 Y190.207 E.11288
G1 X195.548 Y190.337 E.01596
G1 X195.322 Y190.362 E.00967
G1 X197.772 Y192.812 E.14763
G1 X197.772 Y193.544 E.0312
G1 X194.606 Y190.378 E.1908
G1 X193.874 Y190.378 E.0312
G1 X197.772 Y194.276 E.23492
G1 X197.772 Y195.008 E.0312
G1 X193.142 Y190.378 E.27904
G1 X192.41 Y190.378 E.0312
G1 X197.772 Y195.74 E.32317
G1 X197.772 Y196.472 E.0312
G1 X191.678 Y190.378 E.36729
G1 X190.946 Y190.378 E.0312
G1 X197.04 Y196.472 E.36729
G1 X196.308 Y196.472 E.0312
G1 X190.214 Y190.378 E.36729
G1 X189.481 Y190.378 E.0312
G1 X195.576 Y196.472 E.36729
G1 X194.844 Y196.472 E.0312
G1 X188.749 Y190.378 E.36729
G1 X188.017 Y190.378 E.0312
G1 X194.112 Y196.472 E.36729
G1 X193.38 Y196.472 E.0312
G1 X187.285 Y190.378 E.36729
G1 X186.553 Y190.378 E.0312
G1 X192.647 Y196.472 E.36729
G1 X191.915 Y196.472 E.0312
G1 X185.821 Y190.378 E.36729
G1 X185.089 Y190.378 E.0312
G1 X191.183 Y196.472 E.36729
G1 X190.451 Y196.472 E.0312
G1 X184.357 Y190.378 E.36729
G1 X183.625 Y190.378 E.0312
G1 X189.719 Y196.472 E.36729
G1 X188.987 Y196.472 E.0312
G1 X182.892 Y190.378 E.36729
G1 X182.16 Y190.378 E.0312
G1 X188.255 Y196.472 E.36729
G1 X187.523 Y196.472 E.0312
G1 X181.428 Y190.378 E.36729
G1 X180.696 Y190.378 E.0312
G1 X186.791 Y196.472 E.36729
G1 X186.058 Y196.472 E.0312
G1 X179.964 Y190.378 E.36729
G1 X179.232 Y190.378 E.0312
G1 X185.326 Y196.472 E.36729
G1 X184.594 Y196.472 E.0312
G1 X178.267 Y190.145 E.38131
M204 S8000
G1 E-.75 F3000
G1 X176.355 Y174.323 F18000
G1 E.75 F1800
M204 S4000
G1 F5215.588
G1 X175.96 Y173.928 E.0238
G1 X175.228 Y173.928 E.0312
G1 X176.122 Y174.822 E.0539
G1 X176.122 Y175.554 E.0312
G1 X175.228 Y174.66 E.0539
G1 X175.228 Y175.392 E.0312
G1 X176.122 Y176.286 E.0539
G1 X176.122 Y177.019 E.0312
G1 X175.228 Y176.124 E.0539
G1 X175.228 Y176.856 E.0312
G1 X176.122 Y177.751 E.0539
G1 X176.122 Y178.483 E.0312
G1 X175.228 Y177.588 E.0539
G1 X175.228 Y178.32 E.0312
G1 X176.122 Y179.215 E.0539
G1 X176.122 Y179.947 E.0312
G1 X175.228 Y179.053 E.0539
G1 X175.228 Y179.785 E.0312
G1 X176.122 Y180.679 E.0539
G1 X176.122 Y181.411 E.0312
G1 X175.228 Y180.517 E.0539
G1 X175.228 Y181.249 E.0312
G1 X176.122 Y182.143 E.0539
G1 X176.122 Y182.875 E.0312
G1 X175.228 Y181.981 E.0539
G1 X175.228 Y182.713 E.0312
G1 X176.122 Y183.608 E.0539
G1 X176.122 Y184.34 E.0312
G1 X175.228 Y183.445 E.0539
G1 X175.228 Y184.177 E.0312
G1 X176.122 Y185.072 E.0539
G1 X176.122 Y185.804 E.0312
G1 X175.228 Y184.909 E.0539
G1 X175.228 Y185.642 E.0312
G1 X176.122 Y186.536 E.0539
G1 X176.122 Y187.268 E.0312
G1 X175.228 Y186.374 E.0539
G1 X175.228 Y187.106 E.0312
G1 X176.355 Y188.233 E.06792
M204 S8000
G1 X174.995 Y187.605 F18000
M204 S4000
G1 F5215.588
G1 X176.127 Y188.737 E.06823
G1 X176.147 Y188.968 E.00987
G1 X176.254 Y189.334 E.01622
G1 X176.59 Y189.849 E.0262
G1 X177.023 Y190.178 E.02318
G1 X177.452 Y190.337 E.0195
G1 X177.761 Y190.371 E.01326
G1 X183.862 Y196.472 E.36768
G1 X183.13 Y196.472 E.0312
G1 X175.228 Y188.57 E.47624
G1 X175.228 Y189.302 E.0312
G1 X182.398 Y196.472 E.43211
G1 X181.666 Y196.472 E.0312
G1 X175.228 Y190.034 E.38799
G1 X175.228 Y190.766 E.0312
G1 X180.934 Y196.472 E.34387
G1 X180.202 Y196.472 E.0312
G1 X175.228 Y191.498 E.29975
G1 X175.228 Y192.231 E.0312
G1 X179.469 Y196.472 E.25563
G1 X178.737 Y196.472 E.0312
G1 X175.228 Y192.963 E.21151
G1 X175.228 Y193.695 E.0312
G1 X178.005 Y196.472 E.16738
G1 X177.273 Y196.472 E.0312
G1 X175.228 Y194.427 E.12326
G1 X175.228 Y195.159 E.0312
G1 X176.541 Y196.472 E.07914
G1 X175.809 Y196.472 E.0312
G1 X174.995 Y195.658 E.04904
M204 S8000
G1 E-.75 F3000
G1 X173.187 Y158.886 F18000
G1 E.75 F1800
M204 S4000
;TYPE:Perimeter
;WIDTH:0.559999
G1 F2592
G1 X173.187 Y151.214 E.32655
G1 X179.559 Y151.214 E.27121
G1 X179.559 Y158.886 E.32655
G1 X173.247 Y158.886 E.26866
M204 S8000
G1 X172.67 Y159.403 F18000
M204 S4000
G1 F2592
G1 X172.67 Y150.697 E.37057
G1 X180.076 Y150.697 E.31523
G1 X180.076 Y159.403 E.37057
G1 X172.73 Y159.403 E.31268
M204 S8000
G1 X172.153 Y159.92 F18000
M204 S4000
;TYPE:External perimeter
G1 F2592
G1 X172.153 Y150.18 E.41459
G1 X180.593 Y150.18 E.35925
G1 X180.593 Y159.92 E.41459
G1 X172.213 Y159.92 E.3567
M204 S8000
G1 X172.248 Y159.531 F18000
G1 E-.75 F3000
G1 X178.311 Y151.395 F18000
G1 E.75 F1800
M204 S4000
;TYPE:Solid infill
;WIDTH:0.570222
G1 F5120.405
G1 X179.145 Y152.229 E.05121
G1 X179.145 Y152.975 E.03237
G1 X177.798 Y151.628 E.08271
G1 X177.052 Y151.628 E.03237
G1 X179.145 Y153.721 E.12848
G1 X179.145 Y154.467 E.03237
G1 X176.307 Y151.628 E.17426
G1 X175.561 Y151.628 E.03237
G1 X179.145 Y155.212 E.22004
G1 X179.145 Y155.958 E.03237
G1 X174.815 Y151.628 E.26581
G1 X174.07 Y151.628 E.03237
G1 X179.145 Y156.704 E.31159
G1 X179.145 Y157.449 E.03237
G1 X173.601 Y151.905 E.34035
G1 X173.601 Y152.651 E.03237
G1 X179.145 Y158.195 E.34035
G1 X179.145 Y158.472 E.01203
G1 X178.677 Y158.472 E.02034
G1 X173.601 Y153.396 E.31158
G1 X173.601 Y154.142 E.03237
G1 X177.931 Y158.472 E.26581
G1 X177.185 Y158.472 E.03237
G1 X173.601 Y154.888 E.22003
G1 X173.601 Y155.634 E.03237
G1 X176.44 Y158.472 E.17425
G1 X175.694 Y158.472 E.03237
G1 X173.601 Y156.379 E.12847
G1 X173.601 Y157.125 E.03237
G1 X174.948 Y158.472 E.0827
G1 X174.203 Y158.472 E.03237
G1 X173.368 Y157.638 E.0512
M204 S8000
G1 E-.75 F3000
G1 X160.186 Y166.814 F18000
G1 E.75 F1800
M204 S4000
;TYPE:Perimeter
;WIDTH:0.559999
G1 F2592
G1 X160.186 Y174.486 E.32655
G1 X153.814 Y174.486 E.27121
G1 X153.814 Y166.814 E.32655
G1 X160.126 Y166.814 E.26866
M204 S8000
G1 X160.703 Y166.297 F18000
M204 S4000
G1 F2592
G1 X160.703 Y175.003 E.37057
G1 X153.297 Y175.003 E.31523
G1 X153.297 Y166.297 E.37057
G1 X160.643 Y166.297 E.31268
M204 S8000
G1 X161.22 Y165.78 F18000
M204 S4000
;TYPE:External perimeter
G1 F2592
G1 X161.22 Y175.52 E.41459
G1 X152.78 Y175.52 E.35925
G1 X152.78 Y165.78 E.41459
G1 X161.16 Y165.78 E.3567
M204 S8000
G1 X161.126 Y166.169 F18000
G1 X158.938 Y166.995
M204 S4000
;TYPE:Solid infill
;WIDTH:0.570222
G1 F5120.405
G1 X159.772 Y167.829 E.05121
G1 X159.772 Y168.575 E.03237
G1 X158.425 Y167.228 E.08271
G1 X157.679 Y167.228 E.03237
G1 X159.772 Y169.321 E.12848
G1 X159.772 Y170.067 E.03237
G1 X156.933 Y167.228 E.17426
G1 X156.188 Y167.228 E.03237
G1 X159.772 Y170.812 E.22004
G1 X159.772 Y171.558 E.03237
G1 X155.442 Y167.228 E.26581
G1 X154.696 Y167.228 E.03237
G1 X159.772 Y172.304 E.31159
G1 X159.772 Y173.049 E.03237
G1 X154.228 Y167.505 E.34035
G1 X154.228 Y168.251 E.03237
G1 X159.772 Y173.795 E.34035
G1 X159.772 Y174.072 E.01203
G1 X159.304 Y174.072 E.02034
G1 X154.228 Y168.996 E.31158
G1 X154.228 Y169.742 E.03237
G1 X158.558 Y174.072 E.26581
G1 X157.812 Y174.072 E.03237
G1 X154.228 Y170.488 E.22003
G1 X154.228 Y171.234 E.03237
G1 X157.066 Y174.072 E.17425
G1 X156.321 Y174.072 E.03237
G1 X154.228 Y171.979 E.12847
G1 X154.228 Y172.725 E.03237
G1 X155.575 Y174.072 E.0827
G1 X154.829 Y174.072 E.03237
G1 X153.995 Y173.238 E.0512
M204 S8000
G1 E-.75 F3000
G1 X153.814 Y187.214 F18000
G1 E.75 F1800
M204 S4000
;TYPE:Perimeter
;WIDTH:0.559999
G1 F2592
G1 X160.186 Y187.214 E.27121
G1 X160.186 Y194.886 E.32655
G1 X153.814 Y194.886 E.27121
G1 X153.814 Y187.274 E.32399
M204 S8000
G1 X153.297 Y186.697 F18000
M204 S4000
G1 F2592
G1 X160.703 Y186.697 E.31523
G1 X160.703 Y195.403 E.37057
G1 X153.297 Y195.403 E.31523
G1 X153.297 Y186.757 E.36801
M204 S8000
G1 X152.78 Y186.18 F18000
M204 S4000
;TYPE:External perimeter
G1 F2592
G1 X161.22 Y186.18 E.35925
G1 X161.22 Y195.92 E.41459
G1 X152.78 Y195.92 E.35925
G1 X152.78 Y186.24 E.41203
M204 S8000
G1 X153.164 Y186.293 F18000
G1 E-.75 F3000
G1 X158.938 Y187.395 F18000
G1 E.75 F1800
M204 S4000
;TYPE:Solid infill
;WIDTH:0.570222
G1 F5120.405
G1 X159.772 Y188.229 E.05121
G1 X159.772 Y188.975 E.03237
G1 X158.425 Y187.628 E.08271
G1 X157.679 Y187.628 E.03237
G1 X159.772 Y189.721 E.12848
G1 X159.772 Y190.467 E.03237
G1 X156.933 Y187.628 E.17426
G1 X156.188 Y187.628 E.03237
G1 X159.772 Y191.212 E.22004
G1 X159.772 Y191.958 E.03237
G1 X155.442 Y187.628 E.26581
G1 X154.696 Y187.628 E.03237
G1 X159.772 Y192.704 E.31159
G1 X159.772 Y193.449 E.03237
G1 X154.228 Y187.905 E.34035
G1 X154.228 Y188.651 E.03237
G1 X159.772 Y194.195 E.34035
G1 X159.772 Y194.472 E.01203
G1 X159.304 Y194.472 E.02034
G1 X154.228 Y189.396 E.31158
G1 X154.228 Y190.142 E.03237
G1 X158.558 Y194.472 E.26581
G1 X157.812 Y194.472 E.03237
G1 X154.228 Y190.888 E.22003
G1 X154.228 Y191.634 E.03237
G1 X157.066 Y194.472 E.17425
G1 X156.321 Y194.472 E.03237
G1 X154.228 Y192.379 E.12847
G1 X154.228 Y193.125 E.03237
G1 X155.575 Y194.472 E.0827
G1 X154.829 Y194.472 E.03237
G1 X153.995 Y193.638 E.0512
M204 S8000
M106 S255
;LAYER_CHANGE
;Z:0.4
;HEIGHT:0.2
;BEFORE_LAYER_CHANGE
;0.4
G92 E0

G1 Z.4 F18000
;AFTER_LAYER_CHANGE
;0.4
M104 S250 ; set temperature
G1 E-.75 F3000
G1 Z1 F18000
G1 X177.007 Y188.623
G1 Z.4
G1 E.75 F1800
;TYPE:Perimeter
;WIDTH:0.439999
G1 F6799.655
G1 X177.15 Y188.955 E.01182
G1 X177.345 Y189.15 E.00899
G1 X177.554 Y189.269 E.00789
G1 X177.929 Y189.344 E.01247
G1 X195.071 Y189.344 E.56035
G1 X195.446 Y189.269 E.01247
G1 X195.655 Y189.15 E.00789
G1 X195.85 Y188.955 E.00899
G1 X195.992 Y188.687 E.00992
