; generated by PrusaSlicer 2.5.0+win64 on 2022-11-18 at 14:05:13 UTC


;
;

;
;
; TODO: check the size of the extruder and the y-bar clearance. Optimize & test supports.

; external perimeters extrusion width = 0.42mm
; perimeters extrusion width = 0.44mm
; infill extrusion width = 0.44mm
; solid infill extrusion width = 0.44mm
; top infill extrusion width = 0.44mm
; first layer extrusion width = 0.56mm

; external perimeters extrusion width = 0.42mm
; perimeters extrusion width = 0.44mm
; infill extrusion width = 0.44mm
; solid infill extrusion width = 0.44mm
; top infill extrusion width = 0.44mm
; first layer extrusion width = 0.56mm

M107
M190 S55 ; set bed temperature and wait for it to be reached
M104 S215 ; set temperature
;TYPE:Custom
print_start
M109 S215 ; set temperature and wait for it to be reached
G21 ; set units to millimeters
G90 ; use absolute coordinates
M83 ; use relative distances for extrusion
SET_PRESSURE_ADVANCE EXTRUDER=extruder ADVANCE=0.055
SET_HEATER_TEMPERATURE HEATER=heater_bed TARGET=55
SET_HEATER_TEMPERATURE HEATER=extruder TARGET=215
M107
;LAYER_CHANGE
;Z:0.2
;HEIGHT:0.2
;BEFORE_LAYER_CHANGE
;0.2
G92 E0

G1 Z.2 F18000
;AFTER_LAYER_CHANGE
;0.2
G1 E-.75 F3000
G1 X154.244 Y61.357 F18000
G1 E.75 F1800
M204 S4000
;TYPE:Skirt/Brim
;WIDTH:0.56
G1 F3240
G1 X154.851 Y60.364 E.05003
G1 X155.291 Y59.82 E.03009
G1 X157.332 Y57.643 E.12829
G1 X159.115 Y56.097 E.10148
G1 X160.808 Y55.239 E.08159
G1 X161.975 Y55.086 E.05062
G1 X188.025 Y55.086 E1.12001
G1 X189.881 Y55.482 E.08159
G1 X190.874 Y56.088 E.05003
G1 X192.137 Y57.151 E.07099
G1 X193.504 Y58.474 E.08178
G1 X194.761 Y59.883 E.08119
G1 X195.141 Y60.353 E.02597
G1 X195.999 Y62.045 E.08159
G1 X196.151 Y63.213 E.05062
G1 X196.151 Y129.262 E2.83982
G1 X195.756 Y131.118 E.08159
G1 X195.149 Y132.111 E.05003
G1 X194.709 Y132.656 E.0301
G1 X192.668 Y134.832 E.12828
G1 X190.885 Y136.378 E.10148
G1 X189.192 Y137.237 E.08159
G1 X188.025 Y137.389 E.05062
G1 X161.975 Y137.389 E1.12001
G1 X160.119 Y136.993 E.08159
G1 X159.126 Y136.387 E.05003
G1 X157.863 Y135.324 E.07099
G1 X156.496 Y134.002 E.08178
G1 X155.239 Y132.592 E.08119
G1 X154.859 Y132.122 E.02597
G1 X154.001 Y130.43 E.08159
G1 X153.849 Y129.262 E.05062
G1 X153.849 Y63.213 E2.83983
G1 X154.232 Y61.416 E.07901
M204 S8000
G1 X154.747 Y61.533 F18000
M204 S4000
G1 F3240
G1 X154.761 Y61.472 E.00268
G1 X155.254 Y60.688 E.03983
G1 X156.24 Y59.511 E.06598
G1 X158.17 Y57.571 E.11767
G1 X159.44 Y56.499 E.07146
G1 X161.043 Y55.713 E.07676
G1 X161.975 Y55.603 E.04035
G1 X188.025 Y55.603 E1.12001
G1 X189.766 Y55.999 E.07676
G1 X190.55 Y56.492 E.03983
G1 X191.83 Y57.571 E.07199
G1 X193.128 Y58.828 E.07768
G1 X194.359 Y60.208 E.07951
G1 X194.738 Y60.678 E.02597
G1 X195.525 Y62.281 E.07676
G1 X195.634 Y63.213 E.04035
G1 X195.634 Y129.262 E2.83982
G1 X195.239 Y131.003 E.07676
G1 X194.746 Y131.788 E.03983
G1 X193.76 Y132.964 E.06599
G1 X191.83 Y134.905 E.11767
G1 X190.56 Y135.976 E.07146
G1 X188.957 Y136.763 E.07676
G1 X188.025 Y136.872 E.04035
G1 X161.975 Y136.872 E1.12001
G1 X160.234 Y136.477 E.07676
G1 X159.45 Y135.984 E.03983
G1 X158.17 Y134.905 E.07199
G1 X156.872 Y133.647 E.07769
G1 X155.641 Y132.267 E.07951
G1 X155.262 Y131.797 E.02597
G1 X154.475 Y130.195 E.07676
G1 X154.366 Y129.262 E.04035
G1 X154.366 Y63.213 E2.83983
G1 X154.734 Y61.591 E.0715
M204 S8000
G1 X155.374 Y61.816 F18000
M204 S4000
G1 F3240
G1 X155.657 Y61.011 E.03669
G1 X157.378 Y59.05 E.11217
G1 X158.558 Y57.917 E.07033
G1 X159.765 Y56.902 E.06784
G1 X161.975 Y56.121 E.10078
G1 X188.025 Y56.121 E1.12001
G1 X190.226 Y56.895 E.10034
G1 X192.188 Y58.615 E.11217
G1 X193.321 Y59.795 E.07033
G1 X194.336 Y61.003 E.06784
G1 X195.117 Y63.213 E.10078
G1 X195.117 Y129.262 E2.83982
G1 X194.343 Y131.464 E.10034
G1 X192.622 Y133.425 E.11218
G1 X191.442 Y134.558 E.07033
G1 X190.235 Y135.574 E.06784
G1 X188.025 Y136.355 E.10078
G1 X161.975 Y136.355 E1.12001
G1 X159.774 Y135.58 E.10034
G1 X157.812 Y133.86 E.11217
G1 X156.679 Y132.68 E.07033
G1 X155.664 Y131.472 E.06784
G1 X154.883 Y129.262 E.10078
G1 X154.883 Y63.213 E2.83983
G1 X155.354 Y61.873 E.06107
M204 S8000
G1 E-.75 F3000
G1 X185.232 Y101.052 F18000
G1 E.75 F1800
M204 S4000
;TYPE:Perimeter
;WIDTH:0.559999
G1 F4061.275
G1 X185.002 Y101.281 E.01395
G1 X184.65 Y101.74 E.02486
G1 X184.479 Y102.038 E.01477
G1 X184.253 Y102.591 E.0257
G1 X184.168 Y102.915 E.01441
G1 X184.096 Y103.471 E.02411
G1 X184.096 Y103.8 E.01415
G1 X184.168 Y104.36 E.02427
G1 X184.254 Y104.685 E.01445
G1 X184.479 Y105.238 E.02566
G1 X184.65 Y105.535 E.01475
G1 X185.002 Y105.994 E.02484
G1 X185.411 Y106.364 E.02374
G1 X185.994 Y106.755 E.03017
G1 X186.532 Y106.978 E.02507
G1 X186.858 Y107.066 E.0145
G1 X187.431 Y107.141 E.02486
G1 X187.768 Y107.141 E.01449
G1 X188.341 Y107.066 E.02484
G1 X188.666 Y106.979 E.01447
G1 X189.203 Y106.757 E.02497
G1 X189.497 Y106.588 E.01457
G1 X189.959 Y106.233 E.02507
G1 X190.186 Y106.006 E.01378
G1 X190.186 Y126.469 E.87982
G1 X189.96 Y126.244 E.01372
G1 X189.5 Y125.89 E.02497
G1 X189.206 Y125.72 E.01457
G1 X188.668 Y125.497 E.02507
G1 X188.321 Y125.407 E.01538
G1 X187.697 Y125.335 E.02702
G1 X187.372 Y125.339 E.01396
G1 X186.818 Y125.415 E.02404
G1 X186.333 Y125.579 E.02204
G1 X185.832 Y125.8 E.02351
G1 X185.334 Y126.171 E.02671
G1 X185.007 Y126.475 E.0192
G1 X184.65 Y126.94 E.02519
G1 X184.479 Y127.238 E.01477
G1 X184.253 Y127.791 E.0257
G1 X184.168 Y128.115 E.01441
G1 X184.096 Y128.671 E.02411
G1 X184.096 Y129 E.01415
G1 X184.168 Y129.56 E.02427
G1 X184.254 Y129.885 E.01445
G1 X184.479 Y130.438 E.02566
G1 X184.65 Y130.735 E.01475
G1 X185.002 Y131.194 E.02484
G1 X185.231 Y131.423 E.01397
G1 X164.753 Y131.423 E.88047
G1 X165.073 Y131.107 E.01935
G1 X165.284 Y130.834 E.01482
G1 X165.571 Y130.337 E.0247
G1 X165.7 Y130.026 E.01445
G1 X165.851 Y129.465 E.02497
G1 X165.895 Y129.13 E.01456
G1 X165.895 Y128.547 E.02505
G1 X165.851 Y128.211 E.01457
G1 X165.7 Y127.649 E.02501
G1 X165.499 Y127.215 E.02057
G1 X165.16 Y126.663 E.02785
G1 X164.764 Y126.263 E.02422
G1 X164.373 Y125.938 E.02185
G1 X163.89 Y125.662 E.02389
G1 X163.506 Y125.515 E.01767
G1 X162.763 Y125.345 E.03278
G1 X162.172 Y125.339 E.02541
G1 X161.651 Y125.411 E.02264
G1 X161.334 Y125.496 E.01412
G1 X160.797 Y125.718 E.02497
G1 X160.503 Y125.888 E.01457
G1 X160.041 Y126.243 E.02508
G1 X159.814 Y126.469 E.01378
G1 X159.814 Y106.006 E.87982
G1 X160.04 Y106.232 E.01372
G1 X160.5 Y106.586 E.02497
G1 X160.794 Y106.755 E.01457
G1 X161.332 Y106.978 E.02507
G1 X161.658 Y107.066 E.0145
G1 X162.231 Y107.141 E.02486
G1 X162.568 Y107.141 E.01449
G1 X163.137 Y107.066 E.02466
G1 X163.466 Y106.979 E.01465
G1 X164.003 Y106.757 E.02497
G1 X164.297 Y106.588 E.01457
G1 X164.882 Y106.126 E.03204
G1 X165.242 Y105.676 E.02477
G1 X165.521 Y105.237 E.02236
G1 X165.747 Y104.684 E.0257
G1 X165.832 Y104.36 E.01441
G1 X165.904 Y103.804 E.02411
G1 X165.904 Y103.475 E.01415
G1 X165.832 Y102.915 E.02427
G1 X165.746 Y102.59 E.01445
G1 X165.521 Y102.038 E.02566
G1 X165.35 Y101.74 E.01475
G1 X164.998 Y101.282 E.02484
G1 X164.769 Y101.052 E.01397
G1 X185.172 Y101.052 E.87723
M204 S8000
G1 X187.736 Y100.435 F18000
M204 S4000
;WIDTH:0.360745
G1 F4320
G1 X188.189 Y100.816 E.01564
G1 X187.457 Y100.75 E.01942
;WIDTH:0.398967
G1 X187.22 Y100.771 E.00703
;WIDTH:0.438051
G1 X186.984 Y100.792 E.0078
;WIDTH:0.477135
G1 X186.747 Y100.813 E.00858
;WIDTH:0.518567
G1 X186.471 Y100.904 E.01152
;WIDTH:0.559999
G1 F4061.275
G1 X186.194 Y100.996 E.01252
G1 X186.018 Y101.098 E.00874
G1 X185.412 Y101.596 E.03372
G1 X184.958 Y102.233 E.03366
G1 X184.681 Y102.981 E.03429
G1 X184.609 Y103.735 E.03255
G1 X184.732 Y104.49 E.03289
G1 X185.06 Y105.221 E.03445
G1 X185.412 Y105.679 E.02484
G1 X185.726 Y105.954 E.01796
G1 X186.191 Y106.278 E.02436
G1 X186.931 Y106.554 E.03394
G1 X187.701 Y106.628 E.03327
G1 X188.469 Y106.501 E.03346
G1 X189.182 Y106.178 E.03366
G1 X189.788 Y105.679 E.03372
G1 X190.242 Y105.042 E.03366
G1 X190.335 Y104.757 E.01288
;WIDTH:0.517293
G1 F4320
G1 X190.429 Y104.472 E.01182
;WIDTH:0.474587
G1 X190.433 Y104.378 E.0034
;WIDTH:0.434074
G1 X190.437 Y104.283 E.00308
;WIDTH:0.393561
G1 X190.489 Y103.55 E.02145
;WIDTH:0.35636
G1 X190.422 Y103.045 E.01326
G1 X190.749 Y103.435 E.01326
G1 X190.805 Y103.559 E.00354
;WIDTH:0.35778
G1 X190.804 Y103.745 E.00488
;WIDTH:0.393561
G1 X190.786 Y104.306 E.01636
;WIDTH:0.434074
G1 X190.766 Y104.42 E.00379
;WIDTH:0.474587
G1 X190.746 Y104.535 E.00418
;WIDTH:0.517293
G1 X190.724 Y104.834 E.01182
;WIDTH:0.559999
G1 F4061.275
G1 X190.703 Y105.132 E.01288
G1 X190.703 Y127.343 E.95494
G1 X190.724 Y127.549 E.00893
;WIDTH:0.518411
G1 F4320
G1 X190.745 Y127.756 E.00821
;WIDTH:0.476823
G1 X190.765 Y127.963 E.00749
;WIDTH:0.435235
G1 X190.786 Y128.169 E.00678
;WIDTH:0.393647
G1 X190.805 Y128.974 E.02348
;WIDTH:0.356234
G1 X190.422 Y129.43 E.01552
;WIDTH:0.357754
G1 X190.49 Y128.754 E.0178
;WIDTH:0.401844
G1 X190.472 Y128.502 E.00753
;WIDTH:0.445933
G1 X190.454 Y128.25 E.00845
;WIDTH:0.490022
G1 X190.435 Y127.999 E.00938
;WIDTH:0.525011
G1 X190.339 Y127.716 E.01198
;WIDTH:0.559999
G1 F4061.275
G1 X190.242 Y127.433 E.01285
G1 X190.14 Y127.255 E.00885
G1 X189.645 Y126.653 E.03347
G1 X189.009 Y126.198 E.03366
G1 X188.262 Y125.921 E.03424
G1 X187.443 Y125.851 E.03534
G1 X186.921 Y125.923 E.02264
G1 X186.53 Y126.057 E.01779
G1 X186.018 Y126.298 E.02432
G1 X185.556 Y126.653 E.02508
G1 X185.339 Y126.892 E.01388
G1 X184.958 Y127.433 E.02846
G1 X184.681 Y128.181 E.03429
G1 X184.609 Y128.935 E.03255
G1 X184.732 Y129.69 E.03288
G1 X185.06 Y130.421 E.03445
G1 X185.555 Y131.022 E.03347
G1 X186.191 Y131.478 E.03366
G1 X186.467 Y131.573 E.01256
;WIDTH:0.525732
G1 F4320
G1 X186.743 Y131.669 E.01173
;WIDTH:0.491464
G1 X186.84 Y131.67 E.00361
;WIDTH:0.44355
G1 X186.937 Y131.672 E.00322
;WIDTH:0.395636
G1 X187.691 Y131.727 E.0222
;WIDTH:0.356229
G1 X188.194 Y131.658 E.01322
G1 X187.736 Y132.042 E.01558
;WIDTH:0.357875
G1 X187.492 Y132.042 E.0064
;WIDTH:0.395636
G1 X186.914 Y132.023 E.01696
;WIDTH:0.44355
G1 X186.798 Y131.999 E.00393
;WIDTH:0.491464
G1 X186.682 Y131.975 E.0044
;WIDTH:0.525732
G1 X186.391 Y131.958 E.01173
;WIDTH:0.559999
G1 F4061.275
G1 X186.099 Y131.941 E.01256
G1 X163.49 Y131.941 E.97208
G1 X163.329 Y131.964 E.00699
;WIDTH:0.512742
G1 F4320
G1 X163.168 Y131.988 E.00635
;WIDTH:0.465485
G1 X163.007 Y132.011 E.00572
;WIDTH:0.418228
G1 X162.847 Y132.035 E.00508
;WIDTH:0.37097
G1 X162.265 Y132.038 E.01586
;WIDTH:0.364296
G1 X161.814 Y131.659 E.01575
G1 X161.928 Y131.692 E.00318
G1 X162.323 Y131.717 E.01058
;WIDTH:0.407207
G1 X162.883 Y131.714 E.01694
;WIDTH:0.445405
G1 X163.025 Y131.695 E.00479
;WIDTH:0.483603
G1 X163.166 Y131.677 E.00525
;WIDTH:0.521801
G1 X163.308 Y131.658 E.0057
;WIDTH:0.559999
G1 F4061.275
G1 X163.45 Y131.64 E.00616
G1 X163.633 Y131.564 E.00849
G1 X164.278 Y131.166 E.03262
G1 X164.836 Y130.576 E.0349
G1 X165.2 Y129.892 E.03331
G1 X165.378 Y129.13 E.03366
G1 X165.351 Y128.345 E.03374
G1 X165.221 Y127.861 E.02159
G1 X165.052 Y127.473 E.01817
G1 X164.709 Y126.936 E.0274
G1 X164.18 Y126.427 E.03154
G1 X163.745 Y126.175 E.02165
G1 X163.372 Y126.014 E.01746
G1 X162.865 Y125.879 E.02255
G1 X162.243 Y125.851 E.02677
G1 X161.531 Y125.974 E.03106
G1 X160.818 Y126.298 E.03366
G1 X160.212 Y126.796 E.03372
G1 X159.758 Y127.433 E.03366
G1 X159.661 Y127.717 E.01287
;WIDTH:0.524866
G1 F4320
G1 X159.564 Y128 E.012
;WIDTH:0.489732
G1 X159.564 Y128.096 E.00357
;WIDTH:0.441647
G1 X159.563 Y128.192 E.00318
;WIDTH:0.393561
G1 X159.511 Y128.926 E.02145
;WIDTH:0.35636
G1 X159.578 Y129.43 E.01326
G1 X159.195 Y128.974 E.01552
;WIDTH:0.35778
G1 X159.196 Y128.731 E.00637
;WIDTH:0.393561
G1 X159.214 Y128.17 E.01636
;WIDTH:0.441647
G1 X159.238 Y128.055 E.00388
;WIDTH:0.489732
G1 X159.262 Y127.941 E.00435
;WIDTH:0.524866
G1 X159.28 Y127.642 E.012
;WIDTH:0.559999
G1 F4061.275
G1 X159.297 Y127.343 E.01287
G1 X159.297 Y105.133 E.95494
G1 X159.276 Y104.926 E.00893
;WIDTH:0.518412
G1 F4320
G1 X159.255 Y104.719 E.00821
;WIDTH:0.476825
G1 X159.235 Y104.513 E.00749
;WIDTH:0.435238
G1 X159.214 Y104.306 E.00678
;WIDTH:0.39365
G1 X159.195 Y103.501 E.02348
;WIDTH:0.356234
G1 X159.578 Y103.045 E.01552
;WIDTH:0.357754
G1 X159.51 Y103.722 E.0178
;WIDTH:0.39675
G1 X159.53 Y103.972 E.0074
;WIDTH:0.435746
G1 X159.551 Y104.223 E.00821
;WIDTH:0.474741
G1 X159.572 Y104.474 E.00903
;WIDTH:0.51737
G1 X159.665 Y104.758 E.0118
;WIDTH:0.559999
G1 F4061.275
G1 X159.758 Y105.042 E.01286
G1 X159.86 Y105.221 E.00885
G1 X160.355 Y105.822 E.03347
G1 X160.991 Y106.278 E.03366
G1 X161.726 Y106.553 E.03372
G1 X162.501 Y106.628 E.03349
G1 X163.269 Y106.501 E.03346
G1 X163.982 Y106.178 E.03366
G1 X164.588 Y105.679 E.03372
G1 X165.042 Y105.042 E.03366
G1 X165.319 Y104.294 E.03429
G1 X165.391 Y103.541 E.03255
G1 X165.268 Y102.786 E.03289
G1 X164.94 Y102.055 E.03445
G1 X164.445 Y101.453 E.03347
G1 X163.809 Y100.998 E.03366
G1 X163.533 Y100.901 E.01255
;WIDTH:0.52842
G1 F4320
G1 X163.258 Y100.804 E.01179
;WIDTH:0.496841
G1 X163.189 Y100.804 E.00258
;WIDTH:0.462823
G1 X163.121 Y100.803 E.00239
;WIDTH:0.428804
G1 X163.052 Y100.803 E.0022
;WIDTH:0.394785
G1 X162.326 Y100.746 E.02131
;WIDTH:0.356283
G1 X161.807 Y100.817 E.01366
G1 X162.264 Y100.433 E.01556
;WIDTH:0.358775
G1 X162.444 Y100.434 E.00473
;WIDTH:0.394785
G1 X163.072 Y100.452 E.01839
;WIDTH:0.428804
G1 X163.154 Y100.469 E.00268
;WIDTH:0.462823
G1 X163.236 Y100.486 E.00291
;WIDTH:0.496841
G1 X163.318 Y100.503 E.00315
;WIDTH:0.52842
G1 X163.609 Y100.519 E.01179
;WIDTH:0.559999
G1 F4061.275
G1 X163.901 Y100.535 E.01255
G1 X186.103 Y100.535 E.95459
G1 X186.304 Y100.514 E.00871
;WIDTH:0.518982
G1 F4320
G1 X186.506 Y100.494 E.00802
;WIDTH:0.477965
G1 X186.707 Y100.473 E.00733
;WIDTH:0.436948
G1 X186.909 Y100.453 E.00664
;WIDTH:0.395931
G1 X187.676 Y100.436 E.02252
M204 S8000
G1 X187.888 Y100.018 F18000
M204 S4000
;TYPE:External perimeter
;WIDTH:0.559999
G1 F3456
G1 X188.655 Y100.662 E.04305
;WIDTH:0.567208
G1 X189.209 Y101.132 E.03172
G1 X189.693 Y101.575 E.02859
;WIDTH:0.56545
G1 X190.418 Y102.396 E.04758
;WIDTH:0.559999
G1 X191.22 Y103.35 E.05359
G1 X191.22 Y103.559 E.00896
G1 X191.22 Y129.125 E1.09925
G1 X190.588 Y129.878 E.04226
;WIDTH:0.567338
G1 X190.105 Y130.447 E.03252
G1 X189.65 Y130.943 E.02935
;WIDTH:0.575242
G1 X188.658 Y131.81 E.05835
;WIDTH:0.559999
G1 X187.887 Y132.458 E.04327
G1 X162.112 Y132.458 E1.10821
G1 X161.19 Y131.683 E.05177
;WIDTH:0.567198
G1 X160.294 Y130.887 E.05225
;WIDTH:0.565453
G1 X159.582 Y130.08 E.0468
;WIDTH:0.559999
G1 X158.78 Y129.125 E.05359
G1 X158.78 Y103.35 E1.10821
G1 X159.412 Y102.597 E.04226
;WIDTH:0.567335
G1 X159.895 Y102.029 E.03252
G1 X160.35 Y101.533 E.02935
;WIDTH:0.575243
G1 X161.342 Y100.665 E.05835
;WIDTH:0.559999
G1 X162.113 Y100.018 E.04327
G1 X187.828 Y100.018 E1.10564
M204 S8000
G1 X187.914 Y100.417 F18000
G1 X188.81 Y101.493
M204 S4000
;WIDTH:0.569665
G1 F2592
G1 X189.291 Y101.896 E.02744
;WIDTH:0.56548
G1 X189.673 Y102.325 E.02496
G1 X189.886 Y102.701 E.0188
;WIDTH:0.559999
G1 X190.003 Y103.045 E.01563
G1 X190.078 Y103.605 E.02427
G1 X190.007 Y104.228 E.02698
G1 X189.763 Y104.846 E.02856
G1 X189.377 Y105.365 E.02779
G1 X188.867 Y105.767 E.02795
G1 X188.271 Y106.023 E.02786
G1 X187.634 Y106.116 E.02771
G1 X186.998 Y106.041 E.0275
G1 X186.389 Y105.8 E.02817
G1 X185.87 Y105.412 E.02787
G1 X185.471 Y104.906 E.02771
G1 X185.211 Y104.294 E.02858
G1 X185.122 Y103.669 E.02714
G1 X185.193 Y103.047 E.02692
G1 X185.437 Y102.429 E.02856
G1 X185.823 Y101.911 E.02779
G1 X186.333 Y101.508 E.02795
G1 X186.929 Y101.252 E.02787
G1 X187.514 Y101.163 E.02545
G1 X188.204 Y101.238 E.02984
;WIDTH:0.569665
G1 X188.755 Y101.47 E.0262
M204 S8000
G1 E-.75 F3000
G1 X182.529 Y107.555 F18000
G1 E.75 F1800
M204 S4000
;TYPE:Perimeter
;WIDTH:0.559999
G1 F4061.275
G1 X182.564 Y107.766 E.00921
G1 X182.564 Y110.409 E.11363
G1 X182.493 Y110.833 E.0185
G1 X182.441 Y110.96 E.00588
G1 X182.119 Y111.385 E.02291
G1 X181.851 Y111.535 E.01324
G1 X182.493 Y112.644 E.05509
G1 X182.843 Y113.488 E.03928
G1 X183.102 Y114.39 E.04035
G1 X183.291 Y115.674 E.0558
G1 X183.313 Y116.345 E.02885
G1 X183.221 Y117.456 E.04792
G1 X183.087 Y118.163 E.03094
